!!!!SEGMENT: pl-wtm--r-693-m--001_moniuszko-stanislaw--sonety-krymskie-cisza-morska.krn
!!!cenid: 18xx:2932
!!!COM: Moniuszko, Stanisław
!!!COM-rism: pe30008351
!!!CDT: 1819/05/05-1872/06/04
!!!CNT: Polish
!!!OTL: Sonety krymskie – Cisza morska
!!!PDT:
!!!AGN: Secular; Sonnet
!!!SMS-siglum: PL-Wtm
!!!SMS-shelfmark: R 693/M
!!!NIFC-rismID: 1001096149
!!!URL-scan: http://repozytorium.nifc.pl/skany/pl-wtm-nut--r693m
!!!ONB-nifc: UWAGA: zbiór zawiera: 1. Cisza morska, 2. Żegluga, 3. Burza, 4. Ruina, 5. Noc, 6. Hymn, 7. Pielgrzym, 8. Epilog
!!!SMS-variant:
!!!SMS-altvar:
!!!OMD: Andante molto tranquillo
**kern	**text	**kern	**text	**text	**text	**text	**dynam	**kern	**text	**text	**kern	**text	**text	**text	**text	**dynam	**kern	**text	**text	**kern	**text	**text	**text	**text	**dynam	**kern	**text	**kern	**text	**text	**text	**text	**dynam
*group1	*	*group1	*	*	*	*	*	*group1	*	*	*group1	*	*	*	*	*	*group1	*	*	*group1	*	*	*	*	*	*group1	*	*group1	*	*	*	*	*
*part8	*part8	*part7	*part7	*part7	*part7	*part7	*part7	*part6	*part6	*part6	*part5	*part5	*part5	*part5	*part5	*part5	*part4	*part4	*part4	*part3	*part3	*part3	*part3	*part3	*part3	*part2	*part2	*part1	*part1	*part1	*part1	*part1	*part1
*staff8	*staff8	*staff7	*staff7	*staff7	*staff7	*staff7	*	*staff6	*staff6	*staff6	*staff5	*staff5	*staff5	*staff5	*staff5	*	*staff4	*staff4	*staff4	*staff3	*staff3	*staff3	*staff3	*staff3	*	*staff2	*staff2	*staff1	*staff1	*staff1	*staff1	*staff1	*
*I"[Basso]	*	*I"Bas.	*	*	*	*	*	*I"[Tenore]	*	*	*I"Tenor	*	*	*	*	*	*I"[Alto]	*	*	*I"alt.	*	*	*	*	*	*I"[Soprano]	*	*I"Sopran	*	*	*	*	*
*clefF4	*	*clefF4	*	*	*	*	*	*clefGv2	*	*	*clefGv2	*	*	*	*	*	*clefG2	*	*	*clefG2	*	*	*	*	*	*clefG2	*	*clefG2	*	*	*	*	*
*k[b-e-a-d-g-]	*	*k[b-e-a-d-g-]	*	*	*	*	*	*k[b-e-a-d-g-]	*	*	*k[b-e-a-d-g-]	*	*	*	*	*	*k[b-e-a-d-g-]	*	*	*k[b-e-a-d-g-]	*	*	*	*	*	*k[b-e-a-d-g-]	*	*k[b-e-a-d-g-]	*	*	*	*	*
*M6/4	*	*M6/4	*	*	*	*	*	*M6/4	*	*	*M6/4	*	*	*	*	*	*M6/4	*	*	*M6/4	*	*	*	*	*	*M6/4	*	*M6/4	*	*	*	*	*
=1	=1	=1	=1	=1	=1	=1	=1	=1	=1	=1	=1	=1	=1	=1	=1	=1	=1	=1	=1	=1	=1	=1	=1	=1	=1	=1	=1	=1	=1	=1	=1	=1	=1
!	!	!	!	!	!	!	!	!	!	!	!	!	!	!	!	!	!	!	!	!	!	!	!	!	!	!	!	!LO:TX:a:t=1.	!	!	!	!	!
1.ryy	.	1.r	.	.	.	.	.	1.ryy	.	.	1.r	.	.	.	.	.	1.ryy	.	.	1.r	.	.	.	.	.	1.ryy	.	1.r	.	.	.	.	.
=2	=2	=2	=2	=2	=2	=2	=2	=2	=2	=2	=2	=2	=2	=2	=2	=2	=2	=2	=2	=2	=2	=2	=2	=2	=2	=2	=2	=2	=2	=2	=2	=2	=2
*kcancel	*	*kcancel	*	*	*	*	*	*kcancel	*	*	*kcancel	*	*	*	*	*	*kcanel	*	*	*kcancel	*	*	*	*	*	*kcancel	*	*kcancel	*	*	*	*	*
1.ryy	.	1.ryy	.	.	.	.	.	1.ryy	.	.	2.r	.	.	.	.	.	1.ryy	.	.	1.r	.	.	.	.	.	1.ryy	.	1.r	.	.	.	.	.
.	.	.	.	.	.	.	.	.	.	.	4r	.	.	.	.	.	.	.	.	.	.	.	.	.	.	.	.	.	.	.	.	.	.
.	.	.	.	.	.	.	.	.	.	.	4r	.	.	.	.	.	.	.	.	.	.	.	.	.	.	.	.	.	.	.	.	.	.
*	*	*	*	*	*	*	*	*	*	*	*	*	*color:blue	*	*	*	*	*	*	*	*	*	*	*	*	*	*	*	*	*	*	*	*
!	!	!	!	!	!	!	!	!	!	!	!LO:TX:a:t=Solo.:rj	!	!	!	!	!	!	!	!	!	!	!	!	!	!	!	!	!	!	!	!	!	!
.	.	.	.	.	.	.	.	.	.	.	4d-\	Już	Je	Es	.	.	.	.	.	.	.	.	.	.	.	.	.	.	.	.	.	.	.
=3	=3	=3	=3	=3	=3	=3	=3	=3	=3	=3	=3	=3	=3	=3	=3	=3	=3	=3	=3	=3	=3	=3	=3	=3	=3	=3	=3	=3	=3	=3	=3	=3	=3
1.ryy	.	1.ryy	.	.	.	.	.	1.ryy	.	.	2d-\	wstąż-	ven-	kräu-	.	.	1.ryy	.	.	1.r	.	.	.	.	.	1.ryy	.	1.r	.	.	.	.	.
.	.	.	.	.	.	.	.	.	.	.	4d-\	-kę	-to a-	-selt	.	.	.	.	.	.	.	.	.	.	.	.	.	.	.	.	.	.	.
.	.	.	.	.	.	.	.	.	.	.	2d-\	pa-	-pe-	kaum	.	.	.	.	.	.	.	.	.	.	.	.	.	.	.	.	.	.	.
.	.	.	.	.	.	.	.	.	.	.	4d-\	-wi-	-na	den	.	.	.	.	.	.	.	.	.	.	.	.	.	.	.	.	.	.	.
=4	=4	=4	=4	=4	=4	=4	=4	=4	=4	=4	=4	=4	=4	=4	=4	=4	=4	=4	=4	=4	=4	=4	=4	=4	=4	=4	=4	=4	=4	=4	=4	=4	=4
!	!	!	!	!	!	!	!	!	!	!	!	!	!	!	!	!	!	!	!	!	!	!	!	!	!	!	!	!LO:TX:a:t=Meerenstille	!	!	!	!	!
1.ryy	.	1.ryy	.	.	.	.	.	1.ryy	.	.	[>2.d-\	-lo-	muo-	Wim-	.	.	1.ryy	.	.	1.r	.	.	.	.	.	1.ryy	.	1.r	.	.	.	.	.
.	.	.	.	.	.	.	.	.	.	.	2d-\]	.	.	-pel	.	.	.	.	.	.	.	.	.	.	.	.	.	.	.	.	.	.	.
.	.	.	.	.	.	.	.	.	.	.	4d-\	-nu	-ve ie	ein	.	.	.	.	.	.	.	.	.	.	.	.	.	.	.	.	.	.	.
!!LO:LB:g=original
=5	=5	=5	=5	=5	=5	=5	=5	=5	=5	=5	=5	=5	=5	=5	=5	=5	=5	=5	=5	=5	=5	=5	=5	=5	=5	=5	=5	=5	=5	=5	=5	=5	=5
1.ryy	.	1.ryy	.	.	.	.	.	1.ryy	.	.	(>4d-\	wiatr	drop-	sanf-	.	.	1.ryy	.	.	1.ryy	.	.	.	.	.	1.ryy	.	1.ryy	.	.	.	.	.
.	.	.	.	.	.	.	.	.	.	.	4c\)	.	-po	-tes	.	.	.	.	.	.	.	.	.	.	.	.	.	.	.	.	.	.	.
.	.	.	.	.	.	.	.	.	.	.	4d-\	za-	dae-	Lüf-	.	.	.	.	.	.	.	.	.	.	.	.	.	.	.	.	.	.	.
.	.	.	.	.	.	.	.	.	.	.	2e-\	-led-	-fe-	-fe-	.	.	.	.	.	.	.	.	.	.	.	.	.	.	.	.	.	.	.
.	.	.	.	.	.	.	.	.	.	.	4B-\	-wie	ves-	-hen	.	.	.	.	.	.	.	.	.	.	.	.	.	.	.	.	.	.	.
=6	=6	=6	=6	=6	=6	=6	=6	=6	=6	=6	=6	=6	=6	=6	=6	=6	=6	=6	=6	=6	=6	=6	=6	=6	=6	=6	=6	=6	=6	=6	=6	=6	=6
1.ryy	.	1.ryy	.	.	.	.	.	1.ryy	.	.	2.d-\	muś-	sie-	lei-	.	.	1.ryy	.	.	1.ryy	.	.	.	.	.	1.ryy	.	1.ryy	.	.	.	.	.
.	.	.	.	.	.	.	.	.	.	.	4c\	-nie	-co	-se,	.	.	.	.	.	.	.	.	.	.	.	.	.	.	.	.	.	.	.
.	.	.	.	.	.	.	.	.	.	.	4r	.	.	.	.	.	.	.	.	.	.	.	.	.	.	.	.	.	.	.	.	.	.
.	.	.	.	.	.	.	.	.	.	.	4c\	Ci-	Dell'	Es	.	.	.	.	.	.	.	.	.	.	.	.	.	.	.	.	.	.	.
=7	=7	=7	=7	=7	=7	=7	=7	=7	=7	=7	=7	=7	=7	=7	=7	=7	=7	=7	=7	=7	=7	=7	=7	=7	=7	=7	=7	=7	=7	=7	=7	=7	=7
1.ryy	.	1.ryy	.	.	.	.	.	1.ryy	.	.	2d-\	-che-	on-	mur-	.	.	1.ryy	.	.	1.ryy	.	.	.	.	.	1.ryy	.	1.ryy	.	.	.	.	.
.	.	.	.	.	.	.	.	.	.	.	4d-\	-mi	-de	-meln	.	.	.	.	.	.	.	.	.	.	.	.	.	.	.	.	.	.	.
.	.	.	.	.	.	.	.	.	.	.	2c\	gra	tras-	wie	.	.	.	.	.	.	.	.	.	.	.	.	.	.	.	.	.	.	.
.	.	.	.	.	.	.	.	.	.	.	4B-\	pier-	-pa-	im	.	.	.	.	.	.	.	.	.	.	.	.	.	.	.	.	.	.	.
=8	=8	=8	=8	=8	=8	=8	=8	=8	=8	=8	=8	=8	=8	=8	=8	=8	=8	=8	=8	=8	=8	=8	=8	=8	=8	=8	=8	=8	=8	=8	=8	=8	=8
1.ryy	.	1.ryy	.	.	.	.	.	1.ryy	.	.	[<2.A-/	-sia-	-ren-	Frau-	.	.	1.ryy	.	.	1.ryy	.	.	.	.	.	1.ryy	.	1.ryy	.	.	.	.	.
.	.	.	.	.	.	.	.	.	.	.	2A-/]	.	-ta	-me	.	.	.	.	.	.	.	.	.	.	.	.	.	.	.	.	.	.	.
.	.	.	.	.	.	.	.	.	.	.	4A-/	-mi	ca-	die	.	.	.	.	.	.	.	.	.	.	.	.	.	.	.	.	.	.	.
!!LO:LB:g=original
=9	=9	=9	=9	=9	=9	=9	=9	=9	=9	=9	=9	=9	=9	=9	=9	=9	=9	=9	=9	=9	=9	=9	=9	=9	=9	=9	=9	=9	=9	=9	=9	=9	=9
1.ryy	.	1.ryy	.	.	.	.	.	1.ryy	.	.	(<4A-/	roz-	roz-	[[-	son-	.	1.ryy	.	.	1.ryy	.	.	.	.	.	1.ryy	.	1.ryy	.	.	.	.	.
.	.	.	.	.	.	.	.	.	.	.	4Gn/)	.	-za	-tes	.	.	.	.	.	.	.	.	.	.	.	.	.	.	.	.	.	.	.
.	.	.	.	.	.	.	.	.	.	.	4A-/	-ja-	il	Lüft-	-nen-	.	.	.	.	.	.	.	.	.	.	.	.	.	.	.	.	.	.
.	.	.	.	.	.	.	.	.	.	.	(>4c\	-śnio-	sen	.	-hel-	.	.	.	.	.	.	.	.	.	.	.	.	.	.	.	.	.	.
.	.	.	.	.	.	.	.	.	.	.	4B-\)	.	.	.	.	.	.	.	.	.	.	.	.	.	.	.	.	.	.	.	.	.	.
.	.	.	.	.	.	.	.	.	.	.	4A-/	-na	tran-	-chen	-len	.	.	.	.	.	.	.	.	.	.	.	.	.	.	.	.	.	.
=10	=10	=10	=10	=10	=10	=10	=10	=10	=10	=10	=10	=10	=10	=10	=10	=10	=10	=10	=10	=10	=10	=10	=10	=10	=10	=10	=10	=10	=10	=10	=10	=10	=10
1.ryy	.	1.ryy	.	.	.	.	.	1.ryy	.	.	1.f	wo-	-quil-	lei-	Flü-	.	1.ryy	.	.	1.ryy	.	.	.	.	.	1.ryy	.	1.ryy	.	.	.	.	.
=11	=11	=11	=11	=11	=11	=11	=11	=11	=11	=11	=11	=11	=11	=11	=11	=11	=11	=11	=11	=11	=11	=11	=11	=11	=11	=11	=11	=11	=11	=11	=11	=11	=11
!	!	!	!	!	!	!	!	!	!	!	!LO:TX:a:t=A:rj:color=red	!	!	!	!	!	!	!	!	!	!	!	!	!	!	!	!	!	!	!	!	!	!
1.ryy	.	1.ryy	.	.	.	.	.	1.ryy	.	.	2d-\	-da	-lo	-se,]]	-ten.	.	1.ryy	.	.	1.ryy	.	.	.	.	.	1.ryy	.	1.ryy	.	.	.	.	.
.	.	.	.	.	.	.	.	.	.	.	4r	.	.	.	.	.	.	.	.	.	.	.	.	.	.	.	.	.	.	.	.	.	.
.	.	.	.	.	.	.	.	.	.	.	2.r	.	.	.	.	.	.	.	.	.	.	.	.	.	.	.	.	.	.	.	.	.	.
=12	=12	=12	=12	=12	=12	=12	=12	=12	=12	=12	=12	=12	=12	=12	=12	=12	=12	=12	=12	=12	=12	=12	=12	=12	=12	=12	=12	=12	=12	=12	=12	=12	=12
1.ryy	.	1.ryy	.	.	.	.	.	1.ryy	.	.	1.r	.	.	.	.	.	1.ryy	.	.	1.ryy	.	.	.	.	.	1.ryy	.	1.ryy	.	.	.	.	.
!!LO:LB:g=original
=13	=13	=13	=13	=13	=13	=13	=13	=13	=13	=13	=13	=13	=13	=13	=13	=13	=13	=13	=13	=13	=13	=13	=13	=13	=13	=13	=13	=13	=13	=13	=13	=13	=13
1.ryy	.	1.ryy	.	.	.	.	.	1.ryy	.	.	1.r	.	.	.	.	.	1.ryy	.	.	1.ryy	.	.	.	.	.	1.ryy	.	1.ryy	.	.	.	.	.
=14	=14	=14	=14	=14	=14	=14	=14	=14	=14	=14	=14	=14	=14	=14	=14	=14	=14	=14	=14	=14	=14	=14	=14	=14	=14	=14	=14	=14	=14	=14	=14	=14	=14
*	*	*	*	*color:blue	*	*	*	*	*	*	*	*	*	*	*	*	*	*	*	*	*	*color:blue	*	*	*	*	*	*	*	*color:blue	*	*	*
1.ryy	.	2.r	.	.	.	.	.	1.ryy	.	.	1.r	.	.	.	.	.	1.ryy	.	.	2.r	.	.	.	.	.	1.ryy	.	2.r	.	.	.	.	.
.	.	(<2AA-/	jak	Sem-	[[Es	Die	.	.	.	.	.	.	.	.	.	.	.	.	.	(<2A-/	jak	Sem-	[[Es	Die	.	.	.	4r	.	.	.	.	.
.	.	.	.	.	.	.	.	.	.	.	.	.	.	.	.	.	.	.	.	.	.	.	.	.	.	.	.	4r	.	.	.	.	.
.	.	4D-/)	ma-	-bra	.	.	.	.	.	.	.	.	.	.	.	.	.	.	.	4d-/)	ma-	-bra	.	.	.	.	.	4d-/	ma-	La	[[Es	Die	.
=15	=15	=15	=15	=15	=15	=15	=15	=15	=15	=15	=15	=15	=15	=15	=15	=15	=15	=15	=15	=15	=15	=15	=15	=15	=15	=15	=15	=15	=15	=15	=15	=15	=15
1.ryy	.	2.D-\	-rzą-	Spo-	mum-	jun-	.	1.ryy	.	.	1.r	.	.	.	.	.	1.ryy	.	.	2.d-/	-rzą-	Spo-	mum-	jun-	.	1.ryy	.	2.d-/	-rzą-	spo-	mum-	jun-	.
.	.	[>2D-\	-ca	-sa	-meln	-ge	.	.	.	.	.	.	.	.	.	.	.	.	.	[<2d-/	-ca	-sa	-meln]]	-ge	.	.	.	[<2d-/	-ca	-sa	-meln	-ge	.
.	.	4D-\]	o	no-	wie im	.	.	.	.	.	.	.	.	.	.	.	.	.	.	4d-/]	o	no-	.	.	.	.	.	4d-/]	o	no-	wie im	.	.
=16	=16	=16	=16	=16	=16	=16	=16	=16	=16	=16	=16	=16	=16	=16	=16	=16	=16	=16	=16	=16	=16	=16	=16	=16	=16	=16	=16	=16	=16	=16	=16	=16	=16
1.ryy	.	[>2.D-\	szczę-	-vel-	Tra-	Braut	.	1.ryy	.	.	1.r	.	.	.	.	.	1.ryy	.	.	[<2.d-/	szczę-	-vel-	.	Braut	.	1.ryy	.	[<2.d-/	szczę-	-vel-	Trau-	Braut,	.
.	.	2D-\]	.	-la	-me]]	.	.	.	.	.	.	.	.	.	.	.	.	.	.	2d-/]	.	-la	.	.	.	.	.	2d-/]	.	-la	-me	.	.
.	.	4D-\	-ściu	de	.	.	.	.	.	.	.	.	.	.	.	.	.	.	.	4d-/	-ściu	che	.	.	.	.	.	4d-/	-ściu	che	die	ent	.
=17	=17	=17	=17	=17	=17	=17	=17	=17	=17	=17	=17	=17	=17	=17	=17	=17	=17	=17	=17	=17	=17	=17	=17	=17	=17	=17	=17	=17	=17	=17	=17	=17	=17
1.ryy	.	(>4D-\	na-	sog-	.	.	.	1.ryy	.	.	1.r	.	.	.	.	.	1.ryy	.	.	(<4d-/	na-	sog-	.	.	.	1.ryy	.	(<4d-/	na-	sog-	son-	schlum-	.
.	.	4C/)	.	.	.	.	.	.	.	.	.	.	.	.	.	.	.	.	.	4c/)	.	.	.	.	.	.	.	4c/)	.	.	.	-mert	.
.	.	4D-\	-rze-	-ni	.	.	.	.	.	.	.	.	.	.	.	.	.	.	.	4d-/	-rze-	-ni	.	.	.	.	.	4d-/	-rze-	-ni	-nen	in	.
.	.	2E-\	-czo-	lie-	.	.	.	.	.	.	.	.	.	.	.	.	.	.	.	2e-/	-czo-	lie-	.	.	.	.	.	2e-/	-czo-	lie-	hel-	Sehn-	.
.	.	4BB-/	-na	-ti	.	.	.	.	.	.	.	.	.	.	.	.	.	.	.	4B-/	-na	-ti	.	.	.	.	.	4B-/	-na	-ti	-len]]	-suchts	.
!!LO:PB:g=original
=18	=18	=18	=18	=18	=18	=18	=18	=18	=18	=18	=18	=18	=18	=18	=18	=18	=18	=18	=18	=18	=18	=18	=18	=18	=18	=18	=18	=18	=18	=18	=18	=18	=18
*	*	*	*	*	*	*	*	*	*	*	*	*	*	*	*	*	*	*	*	*	*	*color:auto	*	*	*	*	*	*	*	*color:auto	*	*	*
2.D-\	glu-	2.D-\	mło-	gior-	.	.	.	2.r	.	.	1.r	.	.	.	.	.	2.d-/	glu-	.	2.d-/	mło-	gior-	.	.	.	1.ryy	.	2.d-/	mło-	gior-	[[Flu-	glu-	.
2C/	-ten,	2C/	-da	-ni	.	.	.	2r	.	.	.	.	.	.	.	.	2c/	-ten	.	2c/	-da	-ni	.	.	.	.	.	2c/	-da	-ni	-ten	-ten,	.
4C/	Er-	4r	.	.	.	.	.	4c\	Er-	.	.	.	.	.	.	.	4c/	Er-	.	4r	.	.	.	.	.	.	.	4r	.	.	.	.	.
=19	=19	=19	=19	=19	=19	=19	=19	=19	=19	=19	=19	=19	=19	=19	=19	=19	=19	=19	=19	=19	=19	=19	=19	=19	=19	=19	=19	=19	=19	=19	=19	=19	=19
!	!	!	!	!	!	!	!	!	!	!	!LO:TX:t=P:problem:"pp" dopisane ołówkiem"	!	!	!	!	!	!	!	!	!	!	!	!	!	!	!	!	!	!	!	!	!	!
!	!	!	!	!	!	!	!	!	!	!	!LO:TX:a:t=tutti.:rj	!	!	!	!	!LO:DY:a:rj	!	!	!	!	!	!	!	!	!	!	!	!	!	!	!	!	!
2D-\	-wacht	2.D-\	Zbu-	Des-	.	.	.	2d-\	-wacht	.	2.d-\	Zbu-	Des-	.	.	pp	2d-/	-wacht	[[Die	2.d-/	Zbu-	Des-	.	.	.	1.ryy	.	1.r	.	.	.	.	.
4D-\	so	.	.	.	.	.	.	4d-\	so	.	.	.	.	.	.	.	4d-/	sa	.	.	.	.	.	.	.	.	.	.	.	.	.	.	.
2C/	voll	2C/	-dzi	-tan-	.	.	.	2c\	voll	.	2c\	-dzi	-tan-	.	.	.	2c/	volljun-	jun-	2c/	-dzi	-tan-	.	.	.	.	.	.	.	.	.	.	.
4BB-/	Ver-	4BB-/	się	-do-	.	.	.	4B-\	Ver-	.	4B-\	się	-do-	.	.	.	4B-/	Ver-	-ge	4B-/	się	-do-	.	.	.	.	.	.	.	.	.	.	.
=20	=20	=20	=20	=20	=20	=20	=20	=20	=20	=20	=20	=20	=20	=20	=20	=20	=20	=20	=20	=20	=20	=20	=20	=20	=20	=20	=20	=20	=20	=20	=20	=20	=20
(>2AA-/	-lan-	(>2AA-/	a-	-si,	.	.	.	(<2.A-/	-lan-	.	2A-/	a-	-si	.	.	.	(<2A-/	-lan-	Braut,	2A-/	a-	-si	.	.	.	1.ryy	.	4r	.	.	.	.	.
.	.	.	.	.	.	.	.	.	.	.	.	.	.	.	.	.	.	.	.	.	.	.	.	.	.	.	.	4r	.	.	.	.	.
4A-\)	.	4A-\)	-by	sos-	.	.	.	.	.	.	4A-/	-by	sos-	.	.	.	4a-/)	.	ent-	4a-/	-by	sos-	.	.	.	.	.	4a-/	by	Sos-	ent-	und	.
2F\	-gen	2F\	wes-	-pi-	.	.	.	2f\)	-gen	.	2f\	wes-	-pi-	.	.	.	2f/	-gen	-schlum-	2f/	wes-	-pi-	.	.	.	.	.	2f/	wes-	-pi-	-schlum-	seufzt,	.
4D-\	und	4D-\	-tchnąć	-rae	.	.	.	4d-\	und	.	4d-\	-tchnąć	-rae	.	.	.	4d-/	und	.	4d-/	-tchnąć	-rae	.	.	.	.	.	4d-/	-tchnąć	-rae	.	und	.
=21	=21	=21	=21	=21	=21	=21	=21	=21	=21	=21	=21	=21	=21	=21	=21	=21	=21	=21	=21	=21	=21	=21	=21	=21	=21	=21	=21	=21	=21	=21	=21	=21	=21
*	*	*	*	*	*	*	*	*	*	*	*	*	*	*	*	*	*	*	*	*	*	*	*	*	*	*	*	*^	*	*	*	*	*
2C/	seufzt	2C/	i	poi	.	.	.	2A-/	seufzt	.	2A-/	i	poi	.	.	.	2A-/	seufzt	-mert	2A-/	i	poi	.	.	.	1.ryy	.	4g-/	1ryy	i	poi	mert	seufzt	.
.	.	.	.	.	.	.	.	.	.	.	.	.	.	.	.	.	.	.	.	.	.	.	.	.	.	.	.	4r	.	.	.	.	.	.
4C/	ver-	4C/	wnet	ai	.	.	.	4E-/	ver-	.	4E-/	wnet	ai	.	.	.	4A-/	ver-	en	4A-/	wnet	ai	.	.	.	.	.	4g-/	.	wnet	ai	in	wer-	.
(<4AA-/	-stohl-	(<4AA-/	zno-	sog-	.	.	.	2E-/	-stohl-	.	2E-/	zno-	sog-	.	.	.	(4c/	-stohl-	Selm-	(<4c/	zno-	sog-	.	.	.	.	.	2e-/ 2g-	.	zno-	sog-	Selm-	-stohl-	.
4BB-/)	.	4BB-/)	.	.	.	.	.	.	.	.	.	.	.	.	.	.	4B-/)	.	.	4B-/)	.	.	.	.	.	.	.	.	4ryy	.	.	.	.	.
4C/	-ner	4C/	-wu	-ni	.	.	.	4A-/	-ner	.	4A-/	-wu	-ni	.	.	.	4A-/	-ner	-suchts]]	4A-/	-wu	-ni	.	.	.	.	.	4e-/	4e-\	-wu	-ni	-suchts]]	-ner	.
*	*	*	*	*	*	*	*	*	*	*	*	*	*	*	*	*	*	*	*	*	*	*	*	*	*	*	*	*v	*v	*	*	*	*	*
!!LO:PB:g=original
=22	=22	=22	=22	=22	=22	=22	=22	=22	=22	=22	=22	=22	=22	=22	=22	=22	=22	=22	=22	=22	=22	=22	=22	=22	=22	=22	=22	=22	=22	=22	=22	=22	=22
1.ryy	.	[>1.D-	u-	tor-	Wei-	.	.	1.ryy	.	.	[<1.A-	u-	tor-	.	.	.	1.ryy	.	.	[<1.f	u-	tor-	[[glu-	Wei-	.	1.ryy	.	[<1.d-	u-	tor-	[[glü-	Wei-	.
=23	=23	=23	=23	=23	=23	=23	=23	=23	=23	=23	=23	=23	=23	=23	=23	=23	=23	=23	=23	=23	=23	=23	=23	=23	=23	=23	=23	=23	=23	=23	=23	=23	=23
1.ryy	.	1.D-_>	.	.	.	.	.	1.ryy	.	.	1.A-_<	.	.	.	.	.	1.ryy	.	.	1.f_<	.	.	.	.	.	1.ryy	.	1.d-_<	.	.	.	.	.
=24	=24	=24	=24	=24	=24	=24	=24	=24	=24	=24	=24	=24	=24	=24	=24	=24	=24	=24	=24	=24	=24	=24	=24	=24	=24	=24	=24	=24	=24	=24	=24	=24	=24
!	!	!	!	!	!	!	!	!	!	!	!	!	!	!	!	!	!	!	!	!	!	!	!	!	!	!	!	!LO:TX:a:t=E:color=red	!	!	!	!	!
1.ryy	.	4D-\]	-śnie	-na	-se.	.	.	1.ryy	.	.	4A-/]	-śnie.	-na.	.	.	.	1.ryy	.	.	4f/]	-śnie.	-na.	-ten.]]	-se.	.	1.ryy	.	4d-/]	-śnie.	-na.	-ten.]]	-se.	.
.	.	4r	.	.	.	.	.	.	.	.	4r	.	.	.	.	.	.	.	.	4r	.	.	.	.	.	.	.	4r	.	.	.	.	.
.	.	4r	.	.	.	.	.	.	.	.	4r	.	.	.	.	.	.	.	.	4r	.	.	.	.	.	.	.	4r	.	.	.	.	.
.	.	2.r	.	.	.	.	.	.	.	.	2.r	.	.	.	.	.	.	.	.	2.r	.	.	.	.	.	.	.	2.r	.	.	.	.	.
=25	=25	=25	=25	=25	=25	=25	=25	=25	=25	=25	=25	=25	=25	=25	=25	=25	=25	=25	=25	=25	=25	=25	=25	=25	=25	=25	=25	=25	=25	=25	=25	=25	=25
1.ryy	.	1.r	.	.	.	.	.	1.ryy	.	.	1.r	.	.	.	.	.	1.ryy	.	.	1.r	.	.	.	.	.	1.ryy	.	1.r	.	.	.	.	.
!!LO:PB:g=original
=26	=26	=26	=26	=26	=26	=26	=26	=26	=26	=26	=26	=26	=26	=26	=26	=26	=26	=26	=26	=26	=26	=26	=26	=26	=26	=26	=26	=26	=26	=26	=26	=26	=26
1.ryy	.	1.r	.	.	.	.	.	1.ryy	.	.	1.r	.	.	.	.	.	1.ryy	.	.	1.r	.	.	.	.	.	1.ryy	.	1.r	.	.	.	.	.
=27||	=27||	=27||	=27||	=27||	=27||	=27||	=27||	=27||	=27||	=27||	=27||	=27||	=27||	=27||	=27||	=27||	=27||	=27||	=27||	=27||	=27||	=27||	=27||	=27||	=27||	=27||	=27||	=27||	=27||	=27||	=27||	=27||	=27||
*k[f#c#g#d#]	*	*k[f#c#g#d#]	*	*	*	*	*	*k[f#c#g#d#]	*	*	*k[f#c#g#d#]	*	*	*	*	*	*k[f#c#g#d#]	*	*	*k[f#c#g#d#]	*	*	*	*	*	*k[f#c#g#d#]	*	*k[f#c#g#d#]	*	*	*	*	*
1.ryy	.	[<1.C#	Ża-	Stan!	Wie	.	.	4.c#\	Gleich-	.	2c#\	Ża-	Co-	.	.	.	1.ryy	.	.	(<2.e#X/	Ża-	Co-	Gleich-	.	.	4.cc#\	Gleich-	2cc#\	Ża-	Co-	.	.	.
.	.	.	.	.	.	.	.	8c#\	-wie	.	.	.	.	.	.	.	.	.	.	.	.	.	.	.	.	8cc#\	-wie	.	.	.	.	.	.
.	.	.	.	.	.	.	.	4c#\	des	.	4c#\	-gle	-me	.	.	.	.	.	.	.	.	.	.	.	.	4cc#\	des	4cc#\	-gle	-me	.	.	.
.	.	.	.	.	.	.	.	2c#\	Krie-	.	4.c#\	na	do-	.	.	.	.	.	.	2f#/j	.	-me	-wie	.	.	2cc#\	Krie-	4.cc#\	na	do-	.	.	.
.	.	.	.	.	.	.	.	.	.	.	8c#\	kształt	-po	.	.	.	.	.	.	.	.	.	.	.	.	.	.	8cc#\	kształt	-po	.	.	.
.	.	.	.	.	.	.	.	4c#\	-ges	.	4c#\	cho-	la	.	.	.	.	.	.	4f#/j	.	ban-	die	.	.	4cc#\	-ges.	4cc#\	cho-	la	.	.	.
=28	=28	=28	=28	=28	=28	=28	=28	=28	=28	=28	=28	=28	=28	=28	=28	=28	=28	=28	=28	=28	=28	=28	=28	=28	=28	=28	=28	=28	=28	=28	=28	=28	=28
1.ryy	.	2.C#/_<	.	.	.	.	.	1.ryy	.	.	2.c#\	-rą-	guer-	Fah-	.	.	1.ryy	.	.	2.g#/)	.	-die-	Fah-	.	.	1.ryy	.	2.cc#\	-rą-	guer-	Fah-	.	.
.	.	2C#/]	.	.	.	.	.	.	.	.	4c#\	-gwi	-ra	-nen,	.	.	.	.	.	2.a/	-gle	-re	-nen,	.	.	.	.	4cc#\	-gwi	-ra	-nen,	.	.
.	.	.	.	.	.	.	.	.	.	.	4r	.	.	.	.	.	.	.	.	.	.	.	.	.	.	.	.	4r	.	.	.	.	.
.	.	4C#/	-gle	le	die	.	.	.	.	.	4c#\	gdy	bon-	mann	.	.	.	.	.	.	.	.	.	.	.	.	.	4cc#\	gdy	bon-	wenn	.	.
=29	=29	=29	=29	=29	=29	=29	=29	=29	=29	=29	=29	=29	=29	=29	=29	=29	=29	=29	=29	=29	=29	=29	=29	=29	=29	=29	=29	=29	=29	=29	=29	=29	=29
1.ryy	.	1.E	drze-	ve-	Fah-	.	.	1.ryy	.	.	(>4c#\	woj-	-die-	seg-	.	.	1.ryy	.	.	(<2.a/	drze-	ab-	wenn	.	.	1.ryy	.	(>4cc#\	woj-	-die-	seg-	.	.
.	.	.	.	.	.	.	.	.	.	.	4B\)	-nę	-re	.	.	.	.	.	.	.	.	.	.	.	.	.	.	4b\)	-nę	-re	.	.	.
.	.	.	.	.	.	.	.	.	.	.	4c#\	skoń-	ab-	-nend	.	.	.	.	.	.	.	.	.	.	.	.	.	4cc#\	skoń-	ab-	-nend	.	.
.	.	.	.	.	.	.	.	.	.	.	2e\	-czo-	-ban-	kam	.	.	.	.	.	2g#/)	.	-ban-	kam	.	.	.	.	2ee\	-czo-	-ban-	Kam	.	.
.	.	.	.	.	.	.	.	.	.	.	4B\	-no	-do-	der	.	.	.	.	.	4e/	-mią	-do-	der	.	.	.	.	4b\	-no	-do-	der	.	.
=30	=30	=30	=30	=30	=30	=30	=30	=30	=30	=30	=30	=30	=30	=30	=30	=30	=30	=30	=30	=30	=30	=30	=30	=30	=30	=30	=30	=30	=30	=30	=30	=30	=30
1.ryy	.	2BB/	-mią	-le	-nen,	.	.	1.ryy	.	.	2.B\	drze-	-na-	Frie-	.	.	1.ryy	.	.	2.d#X/	drze-	-na-	Frie-	.	.	1.ryy	.	2.b\	drze-	-na-	Frie-	.	.
.	.	4r	.	.	.	.	.	.	.	.	.	.	.	.	.	.	.	.	.	.	.	.	.	.	.	.	.	.	.	.	.	.	.
.	.	2.E\	na	ad	so	.	.	.	.	.	4G#/	-mią	-te	-de,	.	.	.	.	.	2dn/	-mią	-te	-de,	.	.	.	.	4b\	-mią	-te	-de.	.	.
.	.	.	.	.	.	.	.	.	.	.	4r	.	.	.	.	.	.	.	.	.	.	.	.	.	.	.	.	4r	.	.	.	.	.
.	.	.	.	.	.	.	.	.	.	.	4G#/	na	Le	So	.	.	.	.	.	4d/	na	Le	So	.	.	.	.	4e/	na	Le	So	.	.
!!LO:PB:g=original
=31	=31	=31	=31	=31	=31	=31	=31	=31	=31	=31	=31	=31	=31	=31	=31	=31	=31	=31	=31	=31	=31	=31	=31	=31	=31	=31	=31	=31	=31	=31	=31	=31	=31
2.AA/	schla-	2.AA/	masz-	dor-	.	.	.	1.ryy	.	.	2A/	masz-	ve-	schla-	.	.	1.ryy	.	.	2c#/	masz-	ve-	schla-	.	.	1.ryy	.	2cc#\	masz-	ve-	schla-	.	.
.	.	.	.	.	.	.	.	.	.	.	4A/	-tach	-le	-fen	.	.	.	.	.	4e/	-tach	-le	-fen	.	.	.	.	4cc#\	-tach	-le	-fen	.	.
2D#\	-fen	2.Dn\	-tach	-men-	.	.	.	.	.	.	2F#/	na-	stan-	ein-	.	.	.	.	.	2f#/	na-	stan-	ein-	.	.	.	.	(>4cc#\	na-	stan-	ein-	.	.
.	.	.	.	.	.	.	.	.	.	.	.	.	.	.	.	.	.	.	.	.	.	.	.	.	.	.	.	4b\)	.	.	.	.	.
4D#\	die	.	.	.	.	.	.	.	.	.	4B/	-gich	-no ad-	-ge-	.	.	.	.	.	4f#/	-gich	-no ad-	-ge-	.	.	.	.	4a/	-gich	-no ad-	-ge-	.	.
=32	=32	=32	=32	=32	=32	=32	=32	=32	=32	=32	=32	=32	=32	=32	=32	=32	=32	=32	=32	=32	=32	=32	=32	=32	=32	=32	=32	=32	=32	=32	=32	=32	=32
!	!	!	!	!	!	!	!	!	!	!	!LO:N:xstem	!	!	!	!	!	!	!	!	!	!	!	!	!	!	!	!	!	!	!	!	!	!
1.ryy	.	2.E\	o-	-ta-	se-	.	.	1.ryy	.	.	2B/j	o-	-dor-	-zo-	.	.	1.ryy	.	.	(<4f#/	o-	-dor-	-zo-	.	.	1.ryy	.	[<2.g#/	o-	-dor-	-zo-	.	.
.	.	.	.	.	.	.	.	.	.	.	.	.	.	.	.	.	.	.	.	4en/)	.	.	-gen	.	.	.	.	.	.	.	.	.	.
.	.	.	.	.	.	.	.	.	.	.	4B/j	.	-men-	.	.	.	.	.	.	4d#X/	-kręt	-men-	die	.	.	.	.	.	.	.	.	.	.
.	.	4AA/	-kręt	-te	-gel	.	.	.	.	.	2c#\	-kręt	-ta-	-gen.	.	.	.	.	.	2e/	lek-	-ta-	Se-	.	.	.	.	2g#/]	.	.	-gen	.	.
.	.	4r	.	.	.	.	.	.	.	.	.	.	.	.	.	.	.	.	.	.	.	.	.	.	.	.	.	.	.	.	.	.	.
.	.	4AA/	ko-	La	Es	.	.	.	.	.	4E/	ko-	-te	die	.	.	.	.	.	4c#/	-kim	-te	-gel	.	.	.	.	4g#/	-kręt	-men-	die	.	.
=33||	=33||	=33||	=33||	=33||	=33||	=33||	=33||	=33||	=33||	=33||	=33||	=33||	=33||	=33||	=33||	=33||	=33||	=33||	=33||	=33||	=33||	=33||	=33||	=33||	=33||	=33||	=33||	=33||	=33||	=33||	=33||	=33||	=33||
*k[b-e-a-d-g-]	*	*k[b-e-a-d-g-]	*	*	*	*	*	*k[b-e-a-d-g-]	*	*	*k[b-e-a-d-g-]	*	*	*	*	*	*k[b-e-a-d-g-]	*	*	*k[b-e-a-d-g-]	*	*	*	*	*	*k[b-e-a-d-g-]	*	*k[b-e-a-d-g-]	*	*	*	*	*
1.ryy	.	[<2.AA-/	-ły-	na-	schau-	.	.	1.ryy	.	.	2F/	-ły-	Stret-	Se-	.	.	1.ryy	.	.	(<2.d-/	ru-	La	auf	.	.	1.ryy	.	4a-/j	lek-	-ta-	Se-	.	.
.	.	.	.	.	.	.	.	.	.	.	.	.	.	.	.	.	.	.	.	.	.	.	.	.	.	.	.	8a-/j	.	-te,	.	.	.
.	.	.	.	.	.	.	.	.	.	.	.	.	.	.	.	.	.	.	.	.	.	.	.	.	.	.	.	8rj	.	.	.	.	.
.	.	.	.	.	.	.	.	.	.	.	4F/	-sa	-ta	-gel	.	.	.	.	.	.	.	.	.	.	.	.	.	4a-/	-kim	La	-gel	.	.
.	.	2AA-/]	.	.	.	.	.	.	.	.	2G-/	się	da in-	auf	.	.	.	.	.	2e-/)	-chem	na-	.	.	.	.	.	(>4cc\	ru-	na-	auf	.	.
.	.	.	.	.	.	.	.	.	.	.	.	.	.	.	.	.	.	.	.	.	.	.	.	.	.	.	.	4b-\)	-chem	-ve	.	.	.
.	.	4AA-/	-sa	-ve on	-kelt	.	.	.	.	.	4G-/	ko-	-vi-	den	.	.	.	.	.	4e-/	ko-	-ve on	den	.	.	.	.	4a-/	ko-	on	den	.	.
!!LO:LB:g=original
=34	=34	=34	=34	=34	=34	=34	=34	=34	=34	=34	=34	=34	=34	=34	=34	=34	=34	=34	=34	=34	=34	=34	=34	=34	=34	=34	=34	=34	=34	=34	=34	=34	=34
[<1.AA-	kaum	[<1.AA-	się	Deg-	.	.	.	1.ryy	.	.	(<2F/	-ły-	-si-	Ma-	.	.	1.ryy	.	.	[<2d-/	-ły-	deg-	Ma-	.	.	1.ryy	.	[>2.ff\	-ły-	deg-	Ma-	.	.
.	.	.	.	.	.	.	.	.	.	.	4A-/)	-sa	-bi-	.	.	.	.	.	.	4d-/]	sa	-gia,	.	.	.	.	.	.	.	.	.	.	.
.	.	.	.	.	.	.	.	.	.	.	2A-/	się	-le	-sten;	.	.	.	.	.	2f/	się	da in-	-sten;	.	.	.	.	2ff\]	.	.	-sten;	.	.
.	.	.	.	.	.	.	.	.	.	.	4A-/	ko-	ca-	Es	.	.	.	.	.	4f/	ko-	-vi-	Es	.	.	.	.	4dd-\	-sa	-gia	Es	.	.
=35	=35	=35	=35	=35	=35	=35	=35	=35	=35	=35	=35	=35	=35	=35	=35	=35	=35	=35	=35	=35	=35	=35	=35	=35	=35	=35	=35	=35	=35	=35	=35	=35	=35
*	*	*	*	*	*	*	*	*	*	*	*	*	*	*	*	*	*	*	*	*	*	*	*	*	*	*	*	*^	*	*	*	*	*
4AA-/]	.	4AA-/]	.	-gia	.	.	.	1.ryy	.	.	2A-/	-ły-	-ten	schau-	.	.	1.ryy	.	.	2g-/	-ły-	-si-	schau-	.	.	2a-/	schau-	[<2.a-/	2a-\j	się	stret-	.	.	.
4r	.	4r	.	.	.	.	.	.	.	.	.	.	.	.	.	.	.	.	.	.	.	.	.	.	.	.	.	.	.	.	.	.	.	.
4AA-/	der	4AA-/	ko-	La	.	.	.	.	.	.	4A-/	-sa	La	-kelt	.	.	.	.	.	4g-/	-sa	-bi-	-kelt	.	.	4a-/	-kelt	.	4a-\j	.	-ta	.	.	.
2.AA-/	Kiel	2AA-/	-ły-	na-	.	.	.	.	.	.	(>4c\	się	na-	kaum	.	.	.	.	.	2g-/	się	-le	kaum	.	.	2a-/	kaum	2a-/]	4ryy	.	da in-	.	.	.
.	.	.	.	.	.	.	.	.	.	.	4B-\)	.	.	.	.	.	.	.	.	.	.	.	.	.	.	.	.	.	2ryy	.	.	.	.	.
.	.	4AA-/	-sa	-ve on-	.	.	.	.	.	.	4A-/	ko-	-ve on	der	.	.	.	.	.	4e-/	ko-	ca-	der	.	.	4a-/	der	4a-/	.	ko-	-vi-	.	.	.
*	*	*	*	*	*	*	*	*	*	*	*	*	*	*	*	*	*	*	*	*	*	*	*	*	*	*	*	*v	*v	*	*	*	*	*
=36	=36	=36	=36	=36	=36	=36	=36	=36	=36	=36	=36	=36	=36	=36	=36	=36	=36	=36	=36	=36	=36	=36	=36	=36	=36	=36	=36	=36	=36	=36	=36	=36	=36
!	!	!	!	!	!	!	!	!	!	!	!	!	!	!	!	!LO:DY:a:rj	!	!	!	!	!	!	!	!	!LO:DY:a:rj	!	!	!	!	!	!	!	!LO:DY:a:rj
2.AA-/	sich,	1.AA-	się	-deg-	.	.	.	1.ryy	.	.	[>2.f\	-ły-	deg-	Kiel	.	pp	1.ryy	.	.	(<2d-/	-ły-	-te-	Kiel	.	pp	2.a-/	kiel	2a-/	-ły-	-si-	.	.	pp
.	.	.	.	.	.	.	.	.	.	.	.	.	.	.	.	.	.	.	.	4d-/)	-sa	-na	.	.	.	.	.	4a-/	-sa	-bi-	.	.	.
2.AA-/	der	.	.	.	.	.	.	.	.	.	2f\]	.	.	sich,	.	.	.	.	.	2d-/	się	Stret-	sich,	.	.	2a-/	sich,	2a-/	się	-le	.	.	.
.	.	.	.	.	.	.	.	.	.	.	4d-\	-sa	-gia	der	.	.	.	.	.	4d-/	jak	-ta	der	.	.	4a-/	der	4a-/	jak	ca-	.	.	.
!!LO:LB:g=original
=37	=37	=37	=37	=37	=37	=37	=37	=37	=37	=37	=37	=37	=37	=37	=37	=37	=37	=37	=37	=37	=37	=37	=37	=37	=37	=37	=37	=37	=37	=37	=37	=37	=37
!	!	!	!	!	!	!	!	!	!	!	!LO:T:color=red	!	!	!	!	!	!	!	!	!	!	!	!	!	!	!	!	!	!	!	!	!	!
1.ryy	.	2A-\	jak	-gia	Schif-	.	.	1.ryy	.	.	[>2A-/	jak	La	Schif-	.	.	1.ryy	.	.	(<4c/	gdy-	da	Schif-	.	.	1.ryy	.	(>4cc\	gdy-	-te-	Schif-	.	.
.	.	.	.	.	.	.	.	.	.	.	.	.	.	.	.	.	.	.	.	4e-/)	-by	in-	.	.	.	.	.	4b-\)	-by	-na	.	.	.
.	.	4A-\	przy-	La	-fer-	.	.	.	.	.	4A-/]	przy-	.	-fer-	.	.	.	.	.	4a-/	przy-	-vi-	-fer-	.	.	.	.	4a-/	przy-	la	-fer-	.	.
.	.	(>4G-\	-ku-	na-	-knecht	.	.	.	.	.	(>4G-/	-ku-	na-	-knecht	.	.	.	.	.	(<4g-/	-ku-	-si-	-knecht	.	.	.	.	(<4g-/	-ku-	na-	-knecht	.	.
.	.	4F\)	-ty	-ve	.	.	.	.	.	.	4F/)	-ty	-ve	.	.	.	.	.	.	4f/)	-ty	-bil-	.	.	.	.	.	4f/)	-ty	-ve	.	.	.
.	.	4E-\	łań-	on	darf	.	.	.	.	.	4E-/	łań-	on	darf	.	.	.	.	.	4e-/	łań-	-la-	darf	.	.	.	.	4e-/	łań-	on	darf	.	.
=38	=38	=38	=38	=38	=38	=38	=38	=38	=38	=38	=38	=38	=38	=38	=38	=38	=38	=38	=38	=38	=38	=38	=38	=38	=38	=38	=38	=38	=38	=38	=38	=38	=38
1.ryy	.	(>2.D-\	-cu-	deg-	na-	.	.	1.ryy	.	.	1.A-	-cu-	deg-	ra	.	.	1.ryy	.	.	1.d-	-cu-	-te-	ra-	.	.	1.ryy	.	1.f	-cu-	deg-	ra	.	.
.	.	2.C/	.	.	.	.	.	.	.	.	.	.	.	.	.	.	.	.	.	.	.	.	.	.	.	.	.	.	.	.	.	.	.
=39	=39	=39	=39	=39	=39	=39	=39	=39	=39	=39	=39	=39	=39	=39	=39	=39	=39	=39	=39	=39	=39	=39	=39	=39	=39	=39	=39	=39	=39	=39	=39	=39	=39
*	*	*	*	*	*	*	*	*	*	*	*^	*	*	*	*	*	*	*	*	*	*	*	*	*	*	*	*	*^	*	*	*	*	*
1.ryy	.	2.BBn/	.	.	.	.	.	2A-/	sten.	.	2A-/	2.ryy	-chem.	-gia	.	.	.	1.ryy	.	.	2d-/	-chem	-na.	-sten.	.	.	2f/	sten,	2f/	2.ryy	-chem	-gia	.	.	.
.	.	.	.	.	.	.	.	4r	.	.	4r	.	.	.	.	.	.	.	.	.	4r	.	.	.	.	.	4r	.	4r	.	.	.	.	.	.
.	.	2.C/)	.	.	.	.	.	2.A-/	darf	.	4A-\j	2A-/	.	Rit.-	.	.	.	.	.	.	2.r	.	.	.	.	.	2.f/	Dir	4f/j	2f/	Maj-	Rit-	.	.	.
.	.	.	.	.	.	.	.	.	.	.	4A-\j	.	.	-to è il	.	.	.	.	.	.	.	.	.	.	.	.	.	.	4f/j	.	.	-to è il	.	.	.
.	.	.	.	.	.	.	.	.	.	.	4A-\	4ryy	.	pi-	.	.	.	.	.	.	.	.	.	.	.	.	.	.	4f/	4ryy	-tek	pi-	.	.	.
*	*	*	*	*	*	*	*	*	*	*	*	*	*	*	*	*	*	*	*	*	*	*	*	*	*	*	*	*	*v	*v	*	*	*	*	*
*	*	*	*	*	*	*	*	*	*	*	*v	*v	*	*	*	*	*	*	*	*	*	*	*	*	*	*	*	*	*	*	*	*	*	*
=40	=40	=40	=40	=40	=40	=40	=40	=40	=40	=40	=40	=40	=40	=40	=40	=40	=40	=40	=40	=40	=40	=40	=40	=40	=40	=40	=40	=40	=40	=40	=40	=40	=40
1.ryy	.	2D-\	-chem	-gia.	-sten,	.	.	1.A-	ra-	.	1.A-	.	-lo	.	.	.	1.ryy	.	.	1.r	.	.	.	.	.	1.f	Lüf-	1.f	wy-	-lo-	.	.	.
.	.	4r	.	.	.	.	.	.	.	.	.	.	.	.	.	.	.	.	.	.	.	.	.	.	.	.	.	.	.	.	.	.	.
.	.	2.r	.	.	.	.	.	.	.	.	.	.	.	.	.	.	.	.	.	.	.	.	.	.	.	.	.	.	.	.	.	.	.
!!LO:PB:g=original
=41	=41	=41	=41	=41	=41	=41	=41	=41	=41	=41	=41	=41	=41	=41	=41	=41	=41	=41	=41	=41	=41	=41	=41	=41	=41	=41	=41	=41	=41	=41	=41	=41	=41
1.ryy	.	1.r	.	.	.	.	.	1.ryy	.	.	2A-/	-sten.	.	.	.	.	1.ryy	.	.	1.r	.	.	.	.	.	2f/	-te	2f/	-tchnął	-ta	.	.	.
.	.	.	.	.	.	.	.	.	.	.	4r	.	.	.	.	.	.	.	.	.	.	.	.	.	.	4r	.	4r	.	.	.	.	.
.	.	.	.	.	.	.	.	.	.	.	2.r	.	.	.	.	.	.	.	.	.	.	.	.	.	.	2f/	wi-	2.f/	po-	Su	.	.	.
.	.	.	.	.	.	.	.	.	.	.	.	.	.	.	.	.	.	.	.	.	.	.	.	.	.	4f/	-der-	.	.	.	.	.	.
=42	=42	=42	=42	=42	=42	=42	=42	=42	=42	=42	=42	=42	=42	=42	=42	=42	=42	=42	=42	=42	=42	=42	=42	=42	=42	=42	=42	=42	=42	=42	=42	=42	=42
*	*	*	*	*	*	*	*	*	*	*	*	*	*	*	*	*	*	*	*	*	*	*	*	*	*	*	*	*^	*	*	*	*	*
1.ryy	.	1.r	.	.	.	.	.	1.ryy	.	.	1.r	.	.	.	.	.	1.ryy	.	.	1.r	.	.	.	.	.	2.d-/	-hal-	2d-/j	2.d-/	-dró-	cut.-	.	.	.
.	.	.	.	.	.	.	.	.	.	.	.	.	.	.	.	.	.	.	.	.	.	.	.	.	.	.	.	4d-/j	.	.	-ti	.	.	.
.	.	.	.	.	.	.	.	.	.	.	.	.	.	.	.	.	.	.	.	.	.	.	.	.	.	2f/	-len	2f/	4ryy	-żne	vol-	.	.	.
.	.	.	.	.	.	.	.	.	.	.	.	.	.	.	.	.	.	.	.	.	.	.	.	.	.	.	.	.	2ryy	.	.	.	.	.
.	.	.	.	.	.	.	.	.	.	.	.	.	.	.	.	.	.	.	.	.	.	.	.	.	.	4a-/	von	4a-/	.	roz-	-ti un	.	.	.
*	*	*	*	*	*	*	*	*	*	*	*	*	*	*	*	*	*	*	*	*	*	*	*	*	*	*	*	*v	*v	*	*	*	*	*
=43	=43	=43	=43	=43	=43	=43	=43	=43	=43	=43	=43	=43	=43	=43	=43	=43	=43	=43	=43	=43	=43	=43	=43	=43	=43	=43	=43	=43	=43	=43	=43	=43	=43
1.ryy	.	1.r	.	.	.	.	.	1.ryy	.	.	1.r	.	.	.	.	.	1.ryy	.	.	1.r	.	.	.	.	.	2dd-\	Scherg	2.dd-\	-śmia-	ri-	.	.	.
.	.	.	.	.	.	.	.	.	.	.	.	.	.	.	.	.	.	.	.	.	.	.	.	.	.	4dd-\	und	.	.	.	.	.	.
.	.	.	.	.	.	.	.	.	.	.	.	.	.	.	.	.	.	.	.	.	.	.	.	.	.	2ff\	mun-	2ff\	-ło	-so	.	.	.
.	.	.	.	.	.	.	.	.	.	.	.	.	.	.	.	.	.	.	.	.	.	.	.	.	.	4ee-\	-trem	4ee-\	się	ae-	.	.	.
=44||	=44||	=44||	=44||	=44||	=44||	=44||	=44||	=44||	=44||	=44||	=44||	=44||	=44||	=44||	=44||	=44||	=44||	=44||	=44||	=44||	=44||	=44||	=44||	=44||	=44||	=44||	=44||	=44||	=44||	=44||	=44||	=44||	=44||
*M4/4	*	*M4/4	*	*	*	*	*	*M4/4	*	*	*M4/4	*	*	*	*	*	*M4/4	*	*	*M4/4	*	*	*	*	*	*M4/4	*	*M4/4	*	*	*	*	*
*met(c)	*	*met(c)	*	*	*	*	*	*met(c)	*	*	*met(c)	*	*	*	*	*	*met(c)	*	*	*met(c)	*	*	*	*	*	*met(c)	*	*met(c)	*	*	*	*	*
!	!	!	!	!	!	!	!	!	!	!	!LO:TX:a:t=Recit.	!	!	!	!	!	!	!	!	!	!	!	!	!	!	!	!	!LO:TX:a:t=Recit.	!	!	!	!	!
1ryy	.	1r	.	.	.	.	.	1ryy	.	.	2r	.	.	.	.	.	1ryy	.	.	1r	.	.	.	.	.	2dd-\	Lie-	2dd-\	gro-	-leg-	.	.	.
.	.	.	.	.	.	.	.	.	.	.	4r	.	.	.	.	.	.	.	.	.	.	.	.	.	.	4d-/	-de.	4d-/	-no	-gia	.	.	.
.	.	.	.	.	.	.	.	.	.	.	8r	.	.	.	.	.	.	.	.	.	.	.	.	.	.	4r	.	4r	.	.	.	.	.
!	!	!	!	!	!	!	!	!	!	!	!LO:TX:a:t=Solo.:rj	!	!	!	!	!	!	!	!	!	!	!	!	!	!	!	!	!	!	!	!	!	!
.	.	.	.	.	.	.	.	.	.	.	8f\	O	O	O	.	.	.	.	.	.	.	.	.	.	.	.	.	.	.	.	.	.	.
!!LO:LB:g=original
=45	=45	=45	=45	=45	=45	=45	=45	=45	=45	=45	=45	=45	=45	=45	=45	=45	=45	=45	=45	=45	=45	=45	=45	=45	=45	=45	=45	=45	=45	=45	=45	=45	=45
1ryy	.	1ryy	.	.	.	.	.	(>2f\	Meer!	.	2f\	mo-	ma-	.	.	.	1ryy	.	.	1ryy	.	.	.	.	.	1ryy	.	1ryy	.	.	.	.	.
.	.	.	.	.	.	.	.	8c\)	.	.	8c\	-rze,	-re!	.	.	.	.	.	.	.	.	.	.	.	.	.	.	.	.	.	.	.	.
.	.	.	.	.	.	.	.	8c\	in	.	8r	.	.	.	.	.	.	.	.	.	.	.	.	.	.	.	.	.	.	.	.	.	.
.	.	.	.	.	.	.	.	8A-/	dei-	.	8A-/	po-	nel-	.	.	.	.	.	.	.	.	.	.	.	.	.	.	.	.	.	.	.	.
.	.	.	.	.	.	.	.	8B-/	-nen	.	8B-/	-śród	-le	.	.	.	.	.	.	.	.	.	.	.	.	.	.	.	.	.	.	.	.
=46	=46	=46	=46	=46	=46	=46	=46	=46	=46	=46	=46	=46	=46	=46	=46	=46	=46	=46	=46	=46	=46	=46	=46	=46	=46	=46	=46	=46	=46	=46	=46	=46	=46
1ryy	.	1ryy	.	.	.	.	.	4c\	Tie-	.	4c\	two-	un	.	.	.	1ryy	.	.	1ryy	.	.	.	.	.	1ryy	.	1ryy	.	.	.	.	.
.	.	.	.	.	.	.	.	8.c\	-fen,	.	8.c\	-ich	de	.	.	.	.	.	.	.	.	.	.	.	.	.	.	.	.	.	.	.	.
.	.	.	.	.	.	.	.	16c\	voll	.	16c\	we-	tue	.	.	.	.	.	.	.	.	.	.	.	.	.	.	.	.	.	.	.	.
.	.	.	.	.	.	.	.	8e-\	fau-	.	4e-\	-so-	scu-	.	.	.	.	.	.	.	.	.	.	.	.	.	.	.	.	.	.	.	.
.	.	.	.	.	.	.	.	8e-\	-send-	.	.	.	.	.	.	.	.	.	.	.	.	.	.	.	.	.	.	.	.	.	.	.	.
.	.	.	.	.	.	.	.	8.d-\	-fält-	.	8.d-\	-łych	-re	.	.	.	.	.	.	.	.	.	.	.	.	.	.	.	.	.	.	.	.
.	.	.	.	.	.	.	.	16c\	-gen	.	16c\	ży-	pro-	.	.	.	.	.	.	.	.	.	.	.	.	.	.	.	.	.	.	.	.
=47	=47	=47	=47	=47	=47	=47	=47	=47	=47	=47	=47	=47	=47	=47	=47	=47	=47	=47	=47	=47	=47	=47	=47	=47	=47	=47	=47	=47	=47	=47	=47	=47	=47
1ryy	.	1ryy	.	.	.	.	.	2c\	Le-	.	2c\	-ją-	-fon-	.	.	.	1ryy	.	.	1ryy	.	.	.	.	.	1ryy	.	1ryy	.	.	.	.	.
.	.	.	.	.	.	.	.	8B-\	-bens,	.	8B-\	-tek	-de	.	.	.	.	.	.	.	.	.	.	.	.	.	.	.	.	.	.	.	.
.	.	.	.	.	.	.	.	8r	.	.	8r	.	.	.	.	.	.	.	.	.	.	.	.	.	.	.	.	.	.	.	.	.	.
.	.	.	.	.	.	.	.	4d-\	Haust	.	4d-\	jest	Je	.	.	.	.	.	.	.	.	.	.	.	.	.	.	.	.	.	.	.	.
!!LO:PB:g=original
=48	=48	=48	=48	=48	=48	=48	=48	=48	=48	=48	=48	=48	=48	=48	=48	=48	=48	=48	=48	=48	=48	=48	=48	=48	=48	=48	=48	=48	=48	=48	=48	=48	=48
1ryy	.	1ryy	.	.	.	.	.	1r	.	.	4.d-\	po-	pol-	ein	.	.	1ryy	.	.	1ryy	.	.	.	.	.	1ryy	.	1ryy	.	.	.	.	.
.	.	.	.	.	.	.	.	.	.	.	8d-\	-lip	-po	Po-	.	.	.	.	.	.	.	.	.	.	.	.	.	.	.	.	.	.	.
.	.	.	.	.	.	.	.	.	.	.	4.d-\	co	si	-lyp,	.	.	.	.	.	.	.	.	.	.	.	.	.	.	.	.	.	.	.
.	.	.	.	.	.	.	.	.	.	.	8d-\	śpi	as	ver	.	.	.	.	.	.	.	.	.	.	.	.	.	.	.	.	.	.	.
=49	=49	=49	=49	=49	=49	=49	=49	=49	=49	=49	=49	=49	=49	=49	=49	=49	=49	=49	=49	=49	=49	=49	=49	=49	=49	=49	=49	=49	=49	=49	=49	=49	=49
1ryy	.	1ryy	.	.	.	.	.	1r	.	.	2d-\	na	con-	kro-	.	.	1ryy	.	.	1ryy	.	.	.	.	.	1ryy	.	1ryy	.	.	.	.	.
.	.	.	.	.	.	.	.	.	.	.	8En/	dnie,	-de	-chen	.	.	.	.	.	.	.	.	.	.	.	.	.	.	.	.	.	.	.
.	.	.	.	.	.	.	.	.	.	.	8r	.	.	.	.	.	.	.	.	.	.	.	.	.	.	.	.	.	.	.	.	.	.
.	.	.	.	.	.	.	.	.	.	.	4E/	gdy	al-	am	.	.	.	.	.	.	.	.	.	.	.	.	.	.	.	.	.	.	.
=50	=50	=50	=50	=50	=50	=50	=50	=50	=50	=50	=50	=50	=50	=50	=50	=50	=50	=50	=50	=50	=50	=50	=50	=50	=50	=50	=50	=50	=50	=50	=50	=50	=50
1ryy	.	1ryy	.	.	.	.	.	8F/	Grund,	.	4F/	nie-	-lor	.	.	.	1ryy	.	.	1ryy	.	.	.	.	.	1ryy	.	1ryy	.	.	.	.	.
.	.	.	.	.	.	.	.	8F/	wenn	.	.	.	.	.	.	.	.	.	.	.	.	.	.	.	.	.	.	.	.	.	.	.	.
.	.	.	.	.	.	.	.	8.A-/	Wol-	.	8.A-/	-bo	che	.	.	.	.	.	.	.	.	.	.	.	.	.	.	.	.	.	.	.	.
.	.	.	.	.	.	.	.	16B-/	-ken	.	16B-/	się	in-	.	.	.	.	.	.	.	.	.	.	.	.	.	.	.	.	.	.	.	.
.	.	.	.	.	.	.	.	[>2c\	ja-	.	[>2c\	chmu-	-fu-	.	.	.	.	.	.	.	.	.	.	.	.	.	.	.	.	.	.	.	.
=51	=51	=51	=51	=51	=51	=51	=51	=51	=51	=51	=51	=51	=51	=51	=51	=51	=51	=51	=51	=51	=51	=51	=51	=51	=51	=51	=51	=51	=51	=51	=51	=51	=51
1ryy	.	1ryy	.	.	.	.	.	4c\]	.	.	4c\]	.	.	.	.	.	1ryy	.	.	1ryy	.	.	.	.	.	1ryy	.	1ryy	.	.	.	.	.
.	.	.	.	.	.	.	.	8Gn/	-gen,	.	8Gn/	-rzy	-ri	.	.	.	.	.	.	.	.	.	.	.	.	.	.	.	.	.	.	.	.
.	.	.	.	.	.	.	.	8r	.	.	8r	.	.	.	.	.	.	.	.	.	.	.	.	.	.	.	.	.	.	.	.	.	.
.	.	.	.	.	.	.	.	4c\	Doch	.	4.c\	a	nua	.	.	.	.	.	.	.	.	.	.	.	.	.	.	.	.	.	.	.	.
.	.	.	.	.	.	.	.	8c\	gie-	.	.	.	.	.	.	.	.	.	.	.	.	.	.	.	.	.	.	.	.	.	.	.	.
.	.	.	.	.	.	.	.	8e-\	-rig	.	8e-\	na	se ae	.	.	.	.	.	.	.	.	.	.	.	.	.	.	.	.	.	.	.	.
!!LO:LB:g=original
=52	=52	=52	=52	=52	=52	=52	=52	=52	=52	=52	=52	=52	=52	=52	=52	=52	=52	=52	=52	=52	=52	=52	=52	=52	=52	=52	=52	=52	=52	=52	=52	=52	=52
1ryy	.	1ryy	.	.	.	.	.	4e-\	reckt	.	(>4e-\	ci-	cal-	.	.	.	1ryy	.	.	1ryy	.	.	.	.	.	1ryy	.	1ryy	.	.	.	.	.
.	.	.	.	.	.	.	.	8dn\	.	.	8dn\)	-szę	-mo,	.	.	.	.	.	.	.	.	.	.	.	.	.	.	.	.	.	.	.	.
.	.	.	.	.	.	.	.	16ryy	.	.	16r	.	.	.	.	.	.	.	.	.	.	.	.	.	.	.	.	.	.	.	.	.	.
.	.	.	.	.	.	.	.	16cn\	die	.	16c\	dłu-	oi-	.	.	.	.	.	.	.	.	.	.	.	.	.	.	.	.	.	.	.	.
.	.	.	.	.	.	.	.	8c\	Ar-	.	4c\	-gie-	-ren-	.	.	.	.	.	.	.	.	.	.	.	.	.	.	.	.	.	.	.	.
.	.	.	.	.	.	.	.	8c\	-me	.	.	.	.	.	.	.	.	.	.	.	.	.	.	.	.	.	.	.	.	.	.	.	.
.	.	.	.	.	.	.	.	(>8.B-\L	er	.	8.B-\	-mi	-de e-	.	.	.	.	.	.	.	.	.	.	.	.	.	.	.	.	.	.	.	.
.	.	.	.	.	.	.	.	16A-\Jk)	.	.	16A-/	wy-	-gli	.	.	.	.	.	.	.	.	.	.	.	.	.	.	.	.	.	.	.	.
=53	=53	=53	=53	=53	=53	=53	=53	=53	=53	=53	=53	=53	=53	=53	=53	=53	=53	=53	=53	=53	=53	=53	=53	=53	=53	=53	=53	=53	=53	=53	=53	=53	=53
1ryy	.	1ryy	.	.	.	.	.	8Gn/	in	.	4Gn/	-wi-	muo-	.	.	.	1ryy	.	.	1ryy	.	.	.	.	.	1ryy	.	1ryy	.	.	.	.	.
.	.	.	.	.	.	.	.	8G/	der	.	.	.	.	.	.	.	.	.	.	.	.	.	.	.	.	.	.	.	.	.	.	.	.
.	.	.	.	.	.	.	.	8c\	Son-	.	8c\	-ja	-ve	.	.	.	.	.	.	.	.	.	.	.	.	.	.	.	.	.	.	.	.
.	.	.	.	.	.	.	.	8e-\	-ne	.	8e-\	ra-	le	.	.	.	.	.	.	.	.	.	.	.	.	.	.	.	.	.	.	.	.
.	.	.	.	.	.	.	.	2gn\	Strah-	.	2gn\	-mio-	brac-	.	.	.	.	.	.	.	.	.	.	.	.	.	.	.	.	.	.	.	.
=54	=54	=54	=54	=54	=54	=54	=54	=54	=54	=54	=54	=54	=54	=54	=54	=54	=54	=54	=54	=54	=54	=54	=54	=54	=54	=54	=54	=54	=54	=54	=54	=54	=54
1ryy	.	1ryy	.	.	.	.	.	4c\	-len,	.	4c\	-ny	-cia!	.	.	.	1ryy	.	.	1ryy	.	.	.	.	.	1ryy	.	1ryy	.	.	.	.	.
.	.	.	.	.	.	.	.	4r	.	.	4r	.	.	.	.	.	.	.	.	.	.	.	.	.	.	.	.	.	.	.	.	.	.
.	.	.	.	.	.	.	.	2r	.	.	2r	.	.	.	.	.	.	.	.	.	.	.	.	.	.	.	.	.	.	.	.	.	.
!!LO:PB:g=original
=55	=55	=55	=55	=55	=55	=55	=55	=55	=55	=55	=55	=55	=55	=55	=55	=55	=55	=55	=55	=55	=55	=55	=55	=55	=55	=55	=55	=55	=55	=55	=55	=55	=55
*	*	*	*	*	*	*	*	*	*	*	*^	*	*	*	*	*	*	*	*	*	*	*	*	*	*	*	*	*	*	*	*	*	*
1ryy	.	1ryy	.	.	.	.	.	2ryy	.	.	2r	2ryy	.	.	.	.	.	1ryy	.	.	1ryy	.	.	.	.	.	1ryy	.	1ryy	.	.	.	.	.
.	.	.	.	.	.	.	.	4ryy	.	.	4r	4ryy	.	.	.	.	.	.	.	.	.	.	.	.	.	.	.	.	.	.	.	.	.	.
.	.	.	.	.	.	.	.	8ryy	.	.	8ryy	8.r	.	.	.	.	.	.	.	.	.	.	.	.	.	.	.	.	.	.	.	.	.	.
!	!	!	!	!	!	!	!	!	!	!	!	!LO:TX:a:t=P:problem:"p: wpisane ołówkiem	!	!	!	!	!LO:DY:a:rj	!	!	!	!	!	!	!	!	!	!	!	!	!	!	!	!	!
.	.	.	.	.	.	.	.	16ryy	.	.	16.e-/j	.	o	o	.	.	p	.	.	.	.	.	.	.	.	.	.	.	.	.	.	.	.	.
.	.	.	.	.	.	.	.	16e-\	O	.	.	16e-/j	.	.	.	.	.	.	.	.	.	.	.	.	.	.	.	.	.	.	.	.	.	.
.	.	.	.	.	.	.	.	.	.	.	32e-/	.	.	pan-	.	.	.	.	.	.	.	.	.	.	.	.	.	.	.	.	.	.	.	.
*	*	*	*	*	*	*	*	*	*	*	*v	*v	*	*	*	*	*	*	*	*	*	*	*	*	*	*	*	*	*	*	*	*	*	*
=56	=56	=56	=56	=56	=56	=56	=56	=56	=56	=56	=56	=56	=56	=56	=56	=56	=56	=56	=56	=56	=56	=56	=56	=56	=56	=56	=56	=56	=56	=56	=56	=56	=56
1ryy	.	1ryy	.	.	.	.	.	(<2e-\	Herz!	.	2e-\	my-	-sie-	.	.	.	1ryy	.	.	1ryy	.	.	.	.	.	1ryy	.	1ryy	.	.	.	.	.
.	.	.	.	.	.	.	.	8A-/)	.	.	8A-/	-śli!	-ro!	.	.	.	.	.	.	.	.	.	.	.	.	.	.	.	.	.	.	.	.
.	.	.	.	.	.	.	.	8A-/	in	.	8r	.	.	.	.	.	.	.	.	.	.	.	.	.	.	.	.	.	.	.	.	.	.
.	.	.	.	.	.	.	.	8A-/	dei-	.	8A-/	w two-	l'i-	.	.	.	.	.	.	.	.	.	.	.	.	.	.	.	.	.	.	.	.
.	.	.	.	.	.	.	.	8B-\	-nen	.	8B-\	-jej	-tra	.	.	.	.	.	.	.	.	.	.	.	.	.	.	.	.	.	.	.	.
=57	=57	=57	=57	=57	=57	=57	=57	=57	=57	=57	=57	=57	=57	=57	=57	=57	=57	=57	=57	=57	=57	=57	=57	=57	=57	=57	=57	=57	=57	=57	=57	=57	=57
1ryy	.	1ryy	.	.	.	.	.	4c\	Tie-	.	4c\	głę-	del-	.	.	.	1ryy	.	.	1ryy	.	.	.	.	.	1ryy	.	1ryy	.	.	.	.	.
.	.	.	.	.	.	.	.	8c\	-fen,	.	8c\	-bi	-le	.	.	.	.	.	.	.	.	.	.	.	.	.	.	.	.	.	.	.	.
.	.	.	.	.	.	.	.	16r	.	.	16r	.	.	.	.	.	.	.	.	.	.	.	.	.	.	.	.	.	.	.	.	.	.
.	.	.	.	.	.	.	.	16d-\	da	.	16d-\	jest	me-	.	.	.	.	.	.	.	.	.	.	.	.	.	.	.	.	.	.	.	.
.	.	.	.	.	.	.	.	8e-\	hau-	.	4e-\	hy-	-mo	.	.	.	.	.	.	.	.	.	.	.	.	.	.	.	.	.	.	.	.
.	.	.	.	.	.	.	.	8e-\	-sen	.	.	.	.	.	.	.	.	.	.	.	.	.	.	.	.	.	.	.	.	.	.	.	.
.	.	.	.	.	.	.	.	8.f\	al-	.	8.f\	-dra	vic	.	.	.	.	.	.	.	.	.	.	.	.	.	.	.	.	.	.	.	.
.	.	.	.	.	.	.	.	16g-X\	-te	.	16g-X\	pa-	ti al-	.	.	.	.	.	.	.	.	.	.	.	.	.	.	.	.	.	.	.	.
!!LO:PB:g=original
=58	=58	=58	=58	=58	=58	=58	=58	=58	=58	=58	=58	=58	=58	=58	=58	=58	=58	=58	=58	=58	=58	=58	=58	=58	=58	=58	=58	=58	=58	=58	=58	=58	=58
!	!	!	!	!	!	!	!	!	!	!	!LO:TX:a:t=a tempo.	!	!	!	!	!	!	!	!	!	!	!	!	!	!	!	!	!	!	!	!	!	!
1ryy	.	1ryy	.	.	.	.	.	1ryy	.	.	2g-\	-mią-	-lac-	Qua-	.	.	1ryy	.	.	1ryy	.	.	.	.	.	1ryy	.	1ryy	.	.	.	.	.
.	.	.	.	.	.	.	.	.	.	.	8f\	-tek	-cia!	-len,	.	.	.	.	.	.	.	.	.	.	.	.	.	.	.	.	.	.	.
.	.	.	.	.	.	.	.	.	.	.	8r	.	.	.	.	.	.	.	.	.	.	.	.	.	.	.	.	.	.	.	.	.	.
.	.	.	.	.	.	.	.	.	.	.	4f\	co	Ri	Sie	.	.	.	.	.	.	.	.	.	.	.	.	.	.	.	.	.	.	.
=59	=59	=59	=59	=59	=59	=59	=59	=59	=59	=59	=59	=59	=59	=59	=59	=59	=59	=59	=59	=59	=59	=59	=59	=59	=59	=59	=59	=59	=59	=59	=59	=59	=59
1ryy	.	1ryy	.	.	.	.	.	1ryy	.	.	2f\	śpi	po-	schwei-	.	.	1ryy	.	.	1ryy	.	.	.	.	.	1ryy	.	1ryy	.	.	.	.	.
.	.	.	.	.	.	.	.	.	.	.	4e-\	w po-	-si al-	-gen,	.	.	.	.	.	.	.	.	.	.	.	.	.	.	.	.	.	.	.
.	.	.	.	.	.	.	.	.	.	.	8.d-\	-śród	-for	ü-	.	.	.	.	.	.	.	.	.	.	.	.	.	.	.	.	.	.	.
.	.	.	.	.	.	.	.	.	.	.	16c\	złych	che in	-ber	.	.	.	.	.	.	.	.	.	.	.	.	.	.	.	.	.	.	.
=60	=60	=60	=60	=60	=60	=60	=60	=60	=60	=60	=60	=60	=60	=60	=60	=60	=60	=60	=60	=60	=60	=60	=60	=60	=60	=60	=60	=60	=60	=60	=60	=60	=60
*	*	*	*	*	*	*	*	*	*	*	*^	*	*	*	*	*	*	*	*	*	*	*	*	*	*	*	*	*	*	*	*	*	*
1ryy	.	1ryy	.	.	.	.	.	2c\	tö-	.	4.c/j	2c\	lo-	fu-	.	.	.	1ryy	.	.	1ryy	.	.	.	.	.	1ryy	.	1ryy	.	.	.	.	.
.	.	.	.	.	.	.	.	.	.	.	8B-/j	.	.	-ria	.	.	.	.	.	.	.	.	.	.	.	.	.	.	.	.	.	.	.	.
.	.	.	.	.	.	.	.	4B-\	-net	.	4B-\	2ryy	-sów	no	.	.	.	.	.	.	.	.	.	.	.	.	.	.	.	.	.	.	.	.
.	.	.	.	.	.	.	.	8r	.	.	4r	.	.	.	.	.	.	.	.	.	.	.	.	.	.	.	.	.	.	.	.	.	.	.
.	.	.	.	.	.	.	.	8B-\	von	.	.	.	.	.	.	.	.	.	.	.	.	.	.	.	.	.	.	.	.	.	.	.	.	.
!!LO:LB:g=original
=61	=61	=61	=61	=61	=61	=61	=61	=61	=61	=61	=61	=61	=61	=61	=61	=61	=61	=61	=61	=61	=61	=61	=61	=61	=61	=61	=61	=61	=61	=61	=61	=61	=61	=61
1ryy	.	1ryy	.	.	.	.	.	1ryy	.	.	4B-\	2ryy	i	le	Stür-	.	.	1ryy	.	.	1ryy	.	.	.	.	.	1ryy	.	1ryy	.	.	.	.	.
.	.	.	.	.	.	.	.	.	.	.	4B-\	.	na-	pas-	-men	.	.	.	.	.	.	.	.	.	.	.	.	.	.	.	.	.	.	.
!	!	!	!	!	!	!	!	!	!	!	!LO:ART:color=red	!	!	!	!	!	!	!	!	!	!	!	!	!	!	!	!	!	!	!	!	!	!	!
.	.	.	.	.	.	.	.	.	.	.	4gn/j^>	4.gn\^>	-mię-	-sio-	neu-	.	.	.	.	.	.	.	.	.	.	.	.	.	.	.	.	.	.	.
.	.	.	.	.	.	.	.	.	.	.	8f/j	.	-tnej	-ni e il	-en	.	.	.	.	.	.	.	.	.	.	.	.	.	.	.	.	.	.	.
.	.	.	.	.	.	.	.	.	.	.	8f/j	8f\	.	vo-	.	.	.	.	.	.	.	.	.	.	.	.	.	.	.	.	.	.	.	.
*	*	*	*	*	*	*	*	*	*	*	*v	*v	*	*	*	*	*	*	*	*	*	*	*	*	*	*	*	*	*	*	*	*	*	*
=62	=62	=62	=62	=62	=62	=62	=62	=62	=62	=62	=62	=62	=62	=62	=62	=62	=62	=62	=62	=62	=62	=62	=62	=62	=62	=62	=62	=62	=62	=62	=62	=62	=62
1ryy	.	1ryy	.	.	.	.	.	2f\	Stre-	.	2f\	bu-	-lo-	.	.	.	1ryy	.	.	1ryy	.	.	.	.	.	1ryy	.	1ryy	.	.	.	.	.
.	.	.	.	.	.	.	.	8en\	-bens;	.	8en\	-rzy	-re,	.	.	.	.	.	.	.	.	.	.	.	.	.	.	.	.	.	.	.	.
.	.	.	.	.	.	.	.	8r	.	.	8r	.	.	.	.	.	.	.	.	.	.	.	.	.	.	.	.	.	.	.	.	.	.
!	!	!	!	!	!	!	!	!	!	!	!	!	!	!	!	!LO:DY:a:rj	!	!	!	!	!	!	!	!	!	!	!	!	!	!	!	!	!
.	.	.	.	.	.	.	.	8r	.	.	8e\	a	ma il	.	.	p	.	.	.	.	.	.	.	.	.	.	.	.	.	.	.	.	.
.	.	.	.	.	.	.	.	8e\	Doch	.	8e\	gdy	tran-	.	.	.	.	.	.	.	.	.	.	.	.	.	.	.	.	.	.	.	.
=63	=63	=63	=63	=63	=63	=63	=63	=63	=63	=63	=63	=63	=63	=63	=63	=63	=63	=63	=63	=63	=63	=63	=63	=63	=63	=63	=63	=63	=63	=63	=63	=63	=63
*	*	*	*	*	*	*	*	*	*	*	*^	*	*	*	*	*	*	*	*	*	*	*	*	*	*	*	*	*	*	*	*	*	*
1ryy	.	1ryy	.	.	.	.	.	2f\	schrein	.	4.f/j	2f\	ser-	-quil-	.	.	.	1ryy	.	.	1ryy	.	.	.	.	.	1ryy	.	1ryy	.	.	.	.	.
.	.	.	.	.	.	.	.	.	.	.	8f/j	.	.	-lo	.	.	.	.	.	.	.	.	.	.	.	.	.	.	.	.	.	.	.	.
.	.	.	.	.	.	.	.	4A-/	sie	.	4A-/	2ryy	-ce	cuo-	.	.	.	.	.	.	.	.	.	.	.	.	.	.	.	.	.	.	.	.
.	.	.	.	.	.	.	.	8B-\	auf	.	4B-\	.	spo-	-re	.	.	.	.	.	.	.	.	.	.	.	.	.	.	.	.	.	.	.	.
.	.	.	.	.	.	.	.	8B-\	von	.	.	.	.	.	.	.	.	.	.	.	.	.	.	.	.	.	.	.	.	.	.	.	.	.
!!LO:LB:g=original
=64	=64	=64	=64	=64	=64	=64	=64	=64	=64	=64	=64	=64	=64	=64	=64	=64	=64	=64	=64	=64	=64	=64	=64	=64	=64	=64	=64	=64	=64	=64	=64	=64	=64	=64
1ryy	.	1ryy	.	.	.	.	.	1ryy	.	.	2c\	2ryy	-koj-	strin-	.	Neu-	.	1ryy	.	.	1ryy	.	.	.	.	.	1ryy	.	1ryy	.	.	.	.	.
.	.	.	.	.	.	.	.	.	.	.	4c\	4ryy	-ne	-ge	.	-em	.	.	.	.	.	.	.	.	.	.	.	.	.	.	.	.	.	.
.	.	.	.	.	.	.	.	.	.	.	8.c/j	8r	za-	fru-	.	an	.	.	.	.	.	.	.	.	.	.	.	.	.	.	.	.	.	.
.	.	.	.	.	.	.	.	.	.	.	.	8c\	.	.	.	.	.	.	.	.	.	.	.	.	.	.	.	.	.	.	.	.	.	.
.	.	.	.	.	.	.	.	.	.	.	16c/j	.	.	-gliar-	.	.	.	.	.	.	.	.	.	.	.	.	.	.	.	.	.	.	.	.
*	*	*	*	*	*	*	*	*	*	*	*v	*v	*	*	*	*	*	*	*	*	*	*	*	*	*	*	*	*	*	*	*	*	*	*
=65	=65	=65	=65	=65	=65	=65	=65	=65	=65	=65	=65	=65	=65	=65	=65	=65	=65	=65	=65	=65	=65	=65	=65	=65	=65	=65	=65	=65	=65	=65	=65	=65	=65
1ryy	.	1ryy	.	.	.	.	.	2a-\	ti-	stil-	2.a-\	-ta-	-ti	.	.	.	1ryy	.	.	1ryy	.	.	.	.	.	1ryy	.	1ryy	.	.	.	.	.
.	.	.	.	.	.	.	.	4a-\	.	-len,	.	.	.	.	.	.	.	.	.	.	.	.	.	.	.	.	.	.	.	.	.	.	.
.	.	.	.	.	.	.	.	8.f\	-glia	schwü-	8.f\	-pia	gli	.	.	.	.	.	.	.	.	.	.	.	.	.	.	.	.	.	.	.	.
.	.	.	.	.	.	.	.	16en\	spie-	-len	16en\	w niem	sa	.	.	.	.	.	.	.	.	.	.	.	.	.	.	.	.	.	.	.	.
=66	=66	=66	=66	=66	=66	=66	=66	=66	=66	=66	=66	=66	=66	=66	=66	=66	=66	=66	=66	=66	=66	=66	=66	=66	=66	=66	=66	=66	=66	=66	=66	=66	=66
1ryy	.	1ryy	.	.	.	.	.	1ryy	.	.	1gn	szpo-	cu-	-ta-	Ta-	.	1ryy	.	.	1ryy	.	.	.	.	.	1ryy	.	1ryy	.	.	.	.	.
=67	=67	=67	=67	=67	=67	=67	=67	=67	=67	=67	=67	=67	=67	=67	=67	=67	=67	=67	=67	=67	=67	=67	=67	=67	=67	=67	=67	=67	=67	=67	=67	=67	=67
!	!	!	!	!	!	!	!	!	!	!	!LO:TX:a:t=J:rj:color=red	!	!	!	!	!	!	!	!	!	!	!	!	!	!	!	!	!	!	!	!	!	!
1ryy	.	1ryy	.	.	.	.	.	1ryy	.	.	4e-\	-ny	-ti!	-ti!	-gen!	.	1ryy	.	.	1ryy	.	.	.	.	.	1ryy	.	1ryy	.	.	.	.	.
.	.	.	.	.	.	.	.	.	.	.	4r	.	.	.	.	.	.	.	.	.	.	.	.	.	.	.	.	.	.	.	.	.	.
.	.	.	.	.	.	.	.	.	.	.	2r	.	.	.	.	.	.	.	.	.	.	.	.	.	.	.	.	.	.	.	.	.	.
!!LO:LB:g=original
=68	=68	=68	=68	=68	=68	=68	=68	=68	=68	=68	=68	=68	=68	=68	=68	=68	=68	=68	=68	=68	=68	=68	=68	=68	=68	=68	=68	=68	=68	=68	=68	=68	=68
!	!	!	!	!	!	!	!	!	!	!	!	!	!	!	!	!	!	!	!	!	!	!	!	!	!	!	!	!LO:TX:a:t=rall.	!	!	!	!	!
1ryy	.	1ryy	.	.	.	.	.	1ryy	.	.	1r	.	.	.	.	.	1ryy	.	.	1ryy	.	.	.	.	.	2ryy	.	2r	.	.	.	.	.
!	!	!	!	!	!	!	!	!	!	!	!	!	!	!	!	!	!	!	!	!	!	!	!	!	!	!	!	!	!	!	!	!	!LO:DY:a:rj
.	.	.	.	.	.	.	.	.	.	.	.	.	.	.	.	.	.	.	.	.	.	.	.	.	.	2cc\	Es	[>2cc\^>	Już	a	.	.	pp
=69	=69	=69	=69	=69	=69	=69	=69	=69	=69	=69	=69	=69	=69	=69	=69	=69	=69	=69	=69	=69	=69	=69	=69	=69	=69	=69	=69	=69	=69	=69	=69	=69	=69
1ryy	.	1ryy	.	.	.	.	.	1ryy	.	.	2r	.	.	.	.	.	1ryy	.	.	1ryy	.	.	.	.	.	2cc\	krau-	2cc\]	.	.	.	.	.
!	!	!	!	!	!	!	!	!	!	!	!LO:TX:a:t=tutti	!	!	!	!	!	!	!	!	!	!	!	!	!	!	!	!	!	!	!	!	!	!
.	.	.	.	.	.	.	.	.	.	.	4r	.	.	.	.	.	.	.	.	.	.	.	.	.	.	4cc\	-selt	[>2cc\	wstąż-	pe-	.	.	.
!	!	!	!	!	!	!	!	!	!	!	!	!	!	!	!	!LO:DY:a:rj	!	!	!	!	!	!	!	!	!	!	!	!	!	!	!	!	!
.	.	.	.	.	.	.	.	.	.	.	4c\	już	Je	Er	.	pp	.	.	.	.	.	.	.	.	.	4cc\	den	.	.	.	.	.	.
=70||	=70||	=70||	=70||	=70||	=70||	=70||	=70||	=70||	=70||	=70||	=70||	=70||	=70||	=70||	=70||	=70||	=70||	=70||	=70||	=70||	=70||	=70||	=70||	=70||	=70||	=70||	=70||	=70||	=70||	=70||	=70||	=70||	=70||
*M6/4	*	*M6/4	*	*	*	*	*	*M6/4	*	*	*M6/4	*	*	*	*	*	*M6/4	*	*	*M6/4	*	*	*	*	*	*M6/4	*	*M6/4	*	*	*	*	*
!	!	!	!	!	!	!	!	!	!	!	!	!	!	!	!	!	!	!	!	!	!	!	!	!	!	!	!	!LO:TX:a:t=tempo 1o	!	!	!	!	!
1.ryy	.	1.ryy	.	.	.	.	.	1.ryy	.	.	2d-\	wstąż-	ven	kräu-	.	.	1.ryy	.	.	1.ryy	.	.	.	.	.	1.cc	Wim-	1.cc_>	.	.	.	.	.
.	.	.	.	.	.	.	.	.	.	.	4d-\	-kę	tu a	-selt	.	.	.	.	.	.	.	.	.	.	.	.	.	.	.	.	.	.	.
.	.	.	.	.	.	.	.	.	.	.	2d-\	pa-	pe-	kaum	.	.	.	.	.	.	.	.	.	.	.	.	.	.	.	.	.	.	.
.	.	.	.	.	.	.	.	.	.	.	4d-\	-wi-	-na	den	.	.	.	.	.	.	.	.	.	.	.	.	.	.	.	.	.	.	.
=71	=71	=71	=71	=71	=71	=71	=71	=71	=71	=71	=71	=71	=71	=71	=71	=71	=71	=71	=71	=71	=71	=71	=71	=71	=71	=71	=71	=71	=71	=71	=71	=71	=71
1.ryy	.	1.ryy	.	.	.	.	.	1.ryy	.	.	[>2.d-\	-lo-	mue-	Wim-	.	.	1.ryy	.	.	1.ryy	.	.	.	.	.	2.cc\	-pel	2.cc\]	.	.	.	.	.
.	.	.	.	.	.	.	.	.	.	.	2d-\]	.	.	-pel	.	.	.	.	.	.	.	.	.	.	.	2.b-\	ein	2.b-\	-kę	-na il	.	.	.
.	.	.	.	.	.	.	.	.	.	.	4d-\	-nu	-ve il	ein	.	.	.	.	.	.	.	.	.	.	.	.	.	.	.	.	.	.	.
!!LO:LB:g=original
=72	=72	=72	=72	=72	=72	=72	=72	=72	=72	=72	=72	=72	=72	=72	=72	=72	=72	=72	=72	=72	=72	=72	=72	=72	=72	=72	=72	=72	=72	=72	=72	=72	=72
1.ryy	.	1.ryy	.	.	.	.	.	1.ryy	.	.	(>4d-\	wiatr	drap-	sanf-	.	.	1.ryy	.	.	1.ryy	.	.	.	.	.	1.ryy	.	2b-\	wiatr	ven	sanf-	.	.
.	.	.	.	.	.	.	.	.	.	.	4c\)	.	.	.	.	.	.	.	.	.	.	.	.	.	.	.	.	.	.	.	.	.	.
.	.	.	.	.	.	.	.	.	.	.	4d-\	za-	-po	-tes	.	.	.	.	.	.	.	.	.	.	.	.	.	4b-\	za-	to il	-tes	.	.
.	.	.	.	.	.	.	.	.	.	.	2e-\	-led-	del	Lüft-	.	.	.	.	.	.	.	.	.	.	.	.	.	2b-\	-led-	drap-	Lüft-	.	.
.	.	.	.	.	.	.	.	.	.	.	4B-\	-wie	ves-	-chen	.	.	.	.	.	.	.	.	.	.	.	.	.	4b-\	-wie	-po	-chen	.	.
=73	=73	=73	=73	=73	=73	=73	=73	=73	=73	=73	=73	=73	=73	=73	=73	=73	=73	=73	=73	=73	=73	=73	=73	=73	=73	=73	=73	=73	=73	=73	=73	=73	=73
1.ryy	.	1.ryy	.	.	.	.	.	1.ryy	.	.	2.d-\	mu-	-til-	lei-	.	.	1.ryy	.	.	1.ryy	.	.	.	.	.	1.ryy	.	2.b-\	mu-	mue-	lei-	.	.
.	.	.	.	.	.	.	.	.	.	.	4c\	-śnie	-lo	-se,	.	.	.	.	.	.	.	.	.	.	.	.	.	4a-/	-śnie	-ve	-se,	.	.
.	.	.	.	.	.	.	.	.	.	.	4r	.	.	.	.	.	.	.	.	.	.	.	.	.	.	.	.	4r	.	.	.	.	.
.	.	.	.	.	.	.	.	.	.	.	4c\	ci-	Del	Es	.	.	.	.	.	.	.	.	.	.	.	.	.	4r	.	.	.	.	.
=74	=74	=74	=74	=74	=74	=74	=74	=74	=74	=74	=74	=74	=74	=74	=74	=74	=74	=74	=74	=74	=74	=74	=74	=74	=74	=74	=74	=74	=74	=74	=74	=74	=74
1.ryy	.	1.ryy	.	.	.	.	.	1.ryy	.	.	2d-\	-che-	on-	mur-	.	.	1.ryy	.	.	1.ryy	.	.	.	.	.	1.ryy	.	(>[>2.a-/	gra	Del	wie	.	.
.	.	.	.	.	.	.	.	.	.	.	4d-\	-mi	-de	-meln	.	.	.	.	.	.	.	.	.	.	.	.	.	.	.	.	.	.	.
.	.	.	.	.	.	.	.	.	.	.	2c\	gra	tras-	wie	.	.	.	.	.	.	.	.	.	.	.	.	.	4a-/]	.	.	.	.	.
.	.	.	.	.	.	.	.	.	.	.	.	.	.	.	.	.	.	.	.	.	.	.	.	.	.	.	.	4cc\)	.	on-	.	.	.
.	.	.	.	.	.	.	.	.	.	.	4B-\	pier-	-pa	im	.	.	.	.	.	.	.	.	.	.	.	.	.	4dd-\	pier-	-de	im	.	.
=75	=75	=75	=75	=75	=75	=75	=75	=75	=75	=75	=75	=75	=75	=75	=75	=75	=75	=75	=75	=75	=75	=75	=75	=75	=75	=75	=75	=75	=75	=75	=75	=75	=75
1.ryy	.	1.ryy	.	.	.	.	.	1.ryy	.	.	[<2.A-/	-sia-	-ren-	Trau-	.	.	1.ryy	.	.	1.ryy	.	.	.	.	.	1.ryy	.	(>[>2.ff\	-sia-	chia-	Trau-	.	.
.	.	.	.	.	.	.	.	.	.	.	2A-/]	.	-te	-me	.	.	.	.	.	.	.	.	.	.	.	.	.	4ff\]	.	.	.	.	.
.	.	.	.	.	.	.	.	.	.	.	.	.	.	.	.	.	.	.	.	.	.	.	.	.	.	.	.	4ee-\)	.	-ra	-me	.	.
.	.	.	.	.	.	.	.	.	.	.	4A-/	-mi	ca-	die	.	.	.	.	.	.	.	.	.	.	.	.	.	4dd-\	-mi	ca-	die	.	.
!!LO:PB:g=original
=76	=76	=76	=76	=76	=76	=76	=76	=76	=76	=76	=76	=76	=76	=76	=76	=76	=76	=76	=76	=76	=76	=76	=76	=76	=76	=76	=76	=76	=76	=76	=76	=76	=76
!	!	!	!	!	!	!	!LO:DY:a	!	!	!	!	!	!	!	!	!	!	!	!	!	!	!	!	!	!	!	!	!	!	!	!	!	!
1.AA-	Es	1.AA-	gra	Je	.	.	pp	1.ryy	.	.	(<4A-/	.	rez-	son-	.	.	2.ryy	.	.	2.r	.	.	.	.	.	1.ryy	.	2cc\	roz-	-rez-	son-	.	.
.	.	.	.	.	.	.	.	.	.	.	4Gn/)	.	.	.	.	.	.	.	.	.	.	.	.	.	.	.	.	.	.	.	.	.	.
.	.	.	.	.	.	.	.	.	.	.	4A-/	.	-za il	-nen-	.	.	.	.	.	.	.	.	.	.	.	.	.	4b-\	-ja-	-za il	-nen-	.	.
.	.	.	.	.	.	.	.	.	.	.	(>4c\	.	sen	-hel-	.	.	4ryy	.	.	4r	.	.	.	.	.	.	.	2a-/	-śnio-	sen	-hel-	.	.
.	.	.	.	.	.	.	.	.	.	.	4B-\)	.	.	.	.	.	4ryy	.	.	4r	.	.	.	.	.	.	.	.	.	.	.	.	.
!	!	!	!	!	!	!	!	!	!	!	!	!	!	!	!	!	!	!	!	!	!	!	!	!	!LO:DY:a	!	!	!	!	!	!	!	!
.	.	.	.	.	.	.	.	.	.	.	4A-/	.	tran-	-len	.	.	4c/	Es	.	4c/	gra	[[a	Je	.	pp	.	.	4a-/	-na	tran-	-len	.	.
=77	=77	=77	=77	=77	=77	=77	=77	=77	=77	=77	=77	=77	=77	=77	=77	=77	=77	=77	=77	=77	=77	=77	=77	=77	=77	=77	=77	=77	=77	=77	=77	=77	=77
2.F\	mur-	2.E-\	wo-	ma-	.	.	.	1.ryy	.	.	[<2.A-/	wo-	-quil-	Flu-	.	.	2.d-/	mur-	.	2.d-/	wo-	pe-	ma-	.	.	1.ryy	.	1.a-	wo-	-quil-	Flü	.	.
2En\	-meln	2.En\	-da	-re on	.	.	.	.	.	.	2A-/]	.	.	-ten,	.	.	2c/	-meln	.	2.c/	-da	-na	-re on	.	.	.	.	.	.	.	.	.	.
4E\	die	.	.	.	.	.	.	.	.	.	4A-/	-da	-lo	Die	.	.	4c/	die	.	.	.	.	.	.	.	.	.	.	.	.	.	.	.
=78	=78	=78	=78	=78	=78	=78	=78	=78	=78	=78	=78	=78	=78	=78	=78	=78	=78	=78	=78	=78	=78	=78	=78	=78	=78	=78	=78	=78	=78	=78	=78	=78	=78
2.E-X\	Flu-	[>2.E-X\	gra	deg-	.	.	.	1.ryy	.	.	2A-/	jak	Co-	jun-	.	.	2.c-X/	Flu-	.	[<2.c-X^>/	gra	muo-	dag-	.	.	4a-/	ten,	4a-/	-da	-lo	.	.	.
.	.	.	.	.	.	.	.	.	.	.	.	.	.	.	.	.	.	.	.	.	.	.	.	.	.	4r	.	4r	.	.	.	.	.
.	.	.	.	.	.	.	.	.	.	.	4A-/	ma-	-me	-ge	.	.	.	.	.	.	.	.	.	.	.	4r	.	4r	.	.	.	.	.
4E-\	-ten,	4E-\]	.	-gia	.	.	.	.	.	.	(>4c-X\	-rzą-	Spo-	Braut	.	.	4c-/	-ten.	.	4c-/]	.	-ve]]	-gia	.	.	2r	.	2.r	.	.	.	.	.
4r	.	4r	.	.	.	.	.	.	.	.	4B-\)	-ca	-sa	.	.	.	4r	.	.	4r	.	.	.	.	.	.	.	.	.	.	.	.	.
4r	.	4r	.	.	.	.	.	.	.	.	4A-/	o	no-	ent-	.	.	4r	.	.	4r	.	.	.	.	.	4a-/	Die	.	.	.	.	.	.
!!LO:LB:g=original
=79	=79	=79	=79	=79	=79	=79	=79	=79	=79	=79	=79	=79	=79	=79	=79	=79	=79	=79	=79	=79	=79	=79	=79	=79	=79	=79	=79	=79	=79	=79	=79	=79	=79
1.ryy	.	1.ryy	.	.	.	.	.	1.ryy	.	.	[>2.f\	szczę-	-vel-	-schlum-	.	.	1.ryy	.	.	1.ryy	.	.	.	.	.	1.ryy	.	2a-/	jak	Co-	jun-	.	.
.	.	.	.	.	.	.	.	.	.	.	.	.	.	.	.	.	.	.	.	.	.	.	.	.	.	.	.	4cc-X\	ma-	-me	-ge	.	.
.	.	.	.	.	.	.	.	.	.	.	2f\]	.	-la	-mert	.	.	.	.	.	.	.	.	.	.	.	.	.	(>4ee-\	-rzą-	Spo-	Braut	.	.
.	.	.	.	.	.	.	.	.	.	.	.	.	.	.	.	.	.	.	.	.	.	.	.	.	.	.	.	4dd-\)	-ca	-sa	.	.	.
.	.	.	.	.	.	.	.	.	.	.	4e-\	-ściu	Che	in	.	.	.	.	.	.	.	.	.	.	.	.	.	4cc-\	o	no-	ent-	.	.
=80	=80	=80	=80	=80	=80	=80	=80	=80	=80	=80	=80	=80	=80	=80	=80	=80	=80	=80	=80	=80	=80	=80	=80	=80	=80	=80	=80	=80	=80	=80	=80	=80	=80
1.ryy	.	1.ryy	.	.	.	.	.	1.ryy	.	.	2e-\^>	na-	so[[g]]-	süs-	.	.	1.ryy	.	.	1.ryy	.	.	.	.	.	2.cc-X\	-schlum-	2.cc-X\	szczę-	-vel-	.	.	.
.	.	.	.	.	.	.	.	.	.	.	4dn\	-rze-	-gni	-sen	.	.	.	.	.	.	.	.	.	.	.	.	.	.	.	.	.	.	.
.	.	.	.	.	.	.	.	.	.	.	(4d\	-czo-	lie-	Sehn-	.	.	.	.	.	.	.	.	.	.	.	2b-\	-mert	2b-\	-ściu	-la	.	.	.
.	.	.	.	.	.	.	.	.	.	.	4e-\)	.	.	.	.	.	.	.	.	.	.	.	.	.	.	.	.	.	.	.	.	.	.
.	.	.	.	.	.	.	.	.	.	.	4f\	-na	-ti	-suchts-	.	.	.	.	.	.	.	.	.	.	.	4b-\	in	4r	.	.	.	.	.
=81	=81	=81	=81	=81	=81	=81	=81	=81	=81	=81	=81	=81	=81	=81	=81	=81	=81	=81	=81	=81	=81	=81	=81	=81	=81	=81	=81	=81	=81	=81	=81	=81	=81
1.ryy	.	1.ryy	.	.	.	.	.	1.ryy	.	.	[2.B-\	mło-	gior-	-glu-	.	.	1.ryy	.	.	1.ryy	.	.	.	.	.	(>4b-\	Sehn-	(>4b-\	na-	Che	.	.	.
.	.	.	.	.	.	.	.	.	.	.	.	.	.	.	.	.	.	.	.	.	.	.	.	.	.	4ccn\)	.	4ccn\)	.	so-	.	.	.
.	.	.	.	.	.	.	.	.	.	.	.	.	.	.	.	.	.	.	.	.	.	.	.	.	.	4ddn\	-suchts	4ddn\	-rze-	-gni	.	.	.
.	.	.	.	.	.	.	.	.	.	.	2B-\]	.	.	-ten	.	.	.	.	.	.	.	.	.	.	.	4ee-\	glu-	2ee-\	-czo-	lie-	.	.	.
.	.	.	.	.	.	.	.	.	.	.	.	.	.	.	.	.	.	.	.	.	.	.	.	.	.	4ee-\	-ten	.	.	.	.	.	.
.	.	.	.	.	.	.	.	.	.	.	4B-\	-da	-[[g]]ni	Er-	.	.	.	.	.	.	.	.	.	.	.	4ff\	Er-	4ff\	-na	-ti	.	.	.
!!LO:LB:g=original
=82	=82	=82	=82	=82	=82	=82	=82	=82	=82	=82	=82	=82	=82	=82	=82	=82	=82	=82	=82	=82	=82	=82	=82	=82	=82	=82	=82	=82	=82	=82	=82	=82	=82
1.ryy	.	1.ryy	.	.	.	.	.	1.ryy	.	.	(>4B-\	zbu-	Des	wacht	.	.	1.ryy	.	.	1.ryy	.	.	.	.	.	1.ryy	.	(>[>1.gg-	A-	gior-	wacht	.	.
.	.	.	.	.	.	.	.	.	.	.	4cn\)	-dzi	torn-	.	.	.	.	.	.	.	.	.	.	.	.	.	.	.	.	.	.	.	.
!	!	!	!	!	!	!	!	!	!	!	!	!	!	!	!	!LO:HP:a	!	!	!	!	!	!	!	!	!	!	!	!	!	!	!	!	!
.	.	.	.	.	.	.	.	.	.	.	4dn\	się	-to-	so	.	<	.	.	.	.	.	.	.	.	.	.	.	.	.	.	.	.	.
.	.	.	.	.	.	.	.	.	.	.	2e-\	a-	-si	voll	.	.	.	.	.	.	.	.	.	.	.	.	.	.	.	.	.	.	.
.	.	.	.	.	.	.	.	.	.	.	4f\	-by	sos-	Ver-	.	[[	.	.	.	.	.	.	.	.	.	.	.	.	.	.	.	.	.
=83	=83	=83	=83	=83	=83	=83	=83	=83	=83	=83	=83	=83	=83	=83	=83	=83	=83	=83	=83	=83	=83	=83	=83	=83	=83	=83	=83	=83	=83	=83	=83	=83	=83
1.ryy	.	1.ryy	.	.	.	.	.	1.ryy	.	.	[>2.g-\	wes-	-pi-	-lan-	.	.	1.ryy	.	.	1.ryy	.	.	.	.	.	1.ryy	.	4gg-\]	.	.	.	.	.
.	.	.	.	.	.	.	.	.	.	.	.	.	.	.	.	.	.	.	.	.	.	.	.	.	.	.	.	4ff\)	.	-ni	voll	.	.
.	.	.	.	.	.	.	.	.	.	.	.	.	.	.	.	.	.	.	.	.	.	.	.	.	.	.	.	4ee-\	-by	sos-	ver-	.	.
.	.	.	.	.	.	.	.	.	.	.	2g-\]	.	.	-gen,	.	.	.	.	.	.	.	.	.	.	.	.	.	(>4dd-\	wes-	-pi-	-lan-	.	.
.	.	.	.	.	.	.	.	.	.	.	.	.	.	.	.	.	.	.	.	.	.	.	.	.	.	.	.	4cc\)	.	.	-gen	.	.
.	.	.	.	.	.	.	.	.	.	.	4c\	-tchnąć	-ri e	und	.	.	.	.	.	.	.	.	.	.	.	.	.	4b-\	-tchnąć	-ra e	und	.	.
=84	=84	=84	=84	=84	=84	=84	=84	=84	=84	=84	=84	=84	=84	=84	=84	=84	=84	=84	=84	=84	=84	=84	=84	=84	=84	=84	=84	=84	=84	=84	=84	=84	=84
1.ryy	.	1.ryy	.	.	.	.	.	1.ryy	.	.	2e-\	i	poi	seufzt	.	.	1.ryy	.	.	1.ryy	.	.	.	.	.	1.ryy	.	2a-/	i	poi	seufzt,	.	.
.	.	.	.	.	.	.	.	.	.	.	4d-\	wnet	ai	ver-	.	.	.	.	.	.	.	.	.	.	.	.	.	4a-/	wnet	ai	und	.	.
.	.	.	.	.	.	.	.	.	.	.	2A-/	zno-	so-	-stahl-	.	.	.	.	.	.	.	.	.	.	.	.	.	(<[<2.f/	zno-	lie-	seufzt	.	.
.	.	.	.	.	.	.	.	.	.	.	4F/	-wu	-gni	-ner	.	.	.	.	.	.	.	.	.	.	.	.	.	.	.	.	.	.	.
!!LO:PB:g=original
=85	=85	=85	=85	=85	=85	=85	=85	=85	=85	=85	=85	=85	=85	=85	=85	=85	=85	=85	=85	=85	=85	=85	=85	=85	=85	=85	=85	=85	=85	=85	=85	=85	=85
1.ryy	.	2.A-\	i	ai	voll	.	.	1.ryy	.	.	[<1.A-	u-	tor-	Wei-	.	.	1.ryy	.	.	1.r	.	.	.	.	.	1.ryy	.	4f/]	.	.	.	.	.
.	.	.	.	.	.	.	.	.	.	.	.	.	.	.	.	.	.	.	.	.	.	.	.	.	.	.	.	4g-/)	.	.	.	.	.
.	.	.	.	.	.	.	.	.	.	.	.	.	.	.	.	.	.	.	.	.	.	.	.	.	.	.	.	4f/	-wu	-ti	ver-	.	.
.	.	2.C/	wnet	so-	Ver-	.	.	.	.	.	.	.	.	.	.	.	.	.	.	.	.	.	.	.	.	.	.	2e-/	u-	so-	-stohl-	.	.
.	.	.	.	.	.	.	.	.	.	.	.	.	.	.	.	.	.	.	.	.	.	.	.	.	.	.	.	4a-/	-śnie	-gni	-ner	.	.
=86	=86	=86	=86	=86	=86	=86	=86	=86	=86	=86	=86	=86	=86	=86	=86	=86	=86	=86	=86	=86	=86	=86	=86	=86	=86	=86	=86	=86	=86	=86	=86	=86	=86
!	!	!	!	!	!	!	!	!	!	!	!	!	!	!	!	!	!	!	!	!	!	!	!	!	!	!	!	!LO:TX:a:t=O:color=red	!	!	!	!	!
1.ryy	.	[>1.D-	zno-	-gni	-lan-	.	.	1.ryy	.	.	1.A-_<	.	.	.	.	.	1.ryy	.	.	1.r	.	.	.	.	.	1.ryy	.	[<1.a-	zno-	lor-	Wei-	.	.
=87	=87	=87	=87	=87	=87	=87	=87	=87	=87	=87	=87	=87	=87	=87	=87	=87	=87	=87	=87	=87	=87	=87	=87	=87	=87	=87	=87	=87	=87	=87	=87	=87	=87
1.ryy	.	2.D-\]	.	.	-gen	.	.	1.ryy	.	.	2.A-/]	.	.	.	.	.	1.ryy	.	.	1.r	.	.	.	.	.	1.ryy	.	2.a-/]	.	.	.	.	.
.	.	2.C#X/	-wu	ai	und	.	.	.	.	.	2A-/	-śnie	-ni	-se,	.	.	.	.	.	.	.	.	.	.	.	.	.	2.a-/	-wu	-ni ai	-se	.	.
.	.	.	.	.	.	.	.	.	.	.	4r	.	.	.	.	.	.	.	.	.	.	.	.	.	.	.	.	.	.	.	.	.	.
=88	=88	=88	=88	=88	=88	=88	=88	=88	=88	=88	=88	=88	=88	=88	=88	=88	=88	=88	=88	=88	=88	=88	=88	=88	=88	=88	=88	=88	=88	=88	=88	=88	=88
1.ryy	.	1.En	i	lie-	seufzt	.	.	1.ryy	.	.	1.An	i	poi	seufzt	.	.	1.ryy	.	.	1.c#X	i	poi	seufzt	.	.	1.ryy	.	1.an	i	lie-	seufzt	.	.
=89	=89	=89	=89	=89	=89	=89	=89	=89	=89	=89	=89	=89	=89	=89	=89	=89	=89	=89	=89	=89	=89	=89	=89	=89	=89	=89	=89	=89	=89	=89	=89	=89	=89
1.ryy	.	1.En	wnet	-ti	ver-	.	.	1.ryy	.	.	1.G#X	wnet	ai	ver-	.	.	1.ryy	.	.	1.Bn	wnet	ai	ver-	.	.	1.ryy	.	1.en	wnet	-ti	ver-	.	.
!!LO:LB:g=original
=90	=90	=90	=90	=90	=90	=90	=90	=90	=90	=90	=90	=90	=90	=90	=90	=90	=90	=90	=90	=90	=90	=90	=90	=90	=90	=90	=90	=90	=90	=90	=90	=90	=90
1.ryy	.	(>1.D#X	zno-	so-	-stohl-	.	.	1.ryy	.	.	(<1.F#X	zno-	sog-	-stohl-	.	.	1.ryy	.	.	1.Bn	zno-	so-	-stohl-	.	.	1.ryy	.	(<2.f#X/	zno-	So[[g]]-	-stohl-	.	.
.	.	.	.	.	.	.	.	.	.	.	.	.	.	.	.	.	.	.	.	.	.	.	.	.	.	.	.	2.g-X/)	.	.	.	.	.
=91	=91	=91	=91	=91	=91	=91	=91	=91	=91	=91	=91	=91	=91	=91	=91	=91	=91	=91	=91	=91	=91	=91	=91	=91	=91	=91	=91	=91	=91	=91	=91	=91	=91
1.ryy	.	1.E-X)	-wu	-gni	-ner	.	.	1.ryy	.	.	1.G-X)	-wu	-ni	-ner	.	.	1.ryy	.	.	1.cn	-wu	-gni	-ner	.	.	1.ryy	.	1.a-X	-wu	-gni	-ner	.	.
=92	=92	=92	=92	=92	=92	=92	=92	=92	=92	=92	=92	=92	=92	=92	=92	=92	=92	=92	=92	=92	=92	=92	=92	=92	=92	=92	=92	=92	=92	=92	=92	=92	=92
1.ryy	.	[>1.D-X	u-	tor-	Wei-	.	.	1.ryy	.	.	[<1.Fn	u-	tor-	Wei-	.	.	1.ryy	.	.	[<1.d-X	u-	tor-	Wei-	.	.	1.ryy	.	[>1.a-	u-	tor-	Wei-	.	.
=93	=93	=93	=93	=93	=93	=93	=93	=93	=93	=93	=93	=93	=93	=93	=93	=93	=93	=93	=93	=93	=93	=93	=93	=93	=93	=93	=93	=93	=93	=93	=93	=93	=93
1.ryy	.	1.D-]	.	.	.	.	.	1.ryy	.	.	1.F]	.	.	-se!	.	.	1.ryy	.	.	1.d-]	.	-ni!	.	.	.	1.ryy	.	1.a-]	.	.	.	.	.
=94	=94	=94	=94	=94	=94	=94	=94	=94	=94	=94	=94	=94	=94	=94	=94	=94	=94	=94	=94	=94	=94	=94	=94	=94	=94	=94	=94	=94	=94	=94	=94	=94	=94
1.ryy	.	2D-\	-śnie.	-ni!	-se!	.	.	1.ryy	.	.	2D-/	-śnie.	-ni.	.	.	.	1.ryy	.	.	2d-/	-śnie.	.	-se!	.	.	1.ryy	.	2d-/	-śnie.	-ni!	-se!	.	.
.	.	4r	.	.	.	.	.	.	.	.	4r	.	.	.	.	.	.	.	.	1r	.	.	.	.	.	.	.	4r	.	.	.	.	.
.	.	2.r	.	.	.	.	.	.	.	.	2.r	.	.	.	.	.	.	.	.	.	.	.	.	.	.	.	.	2.r	.	.	.	.	.
=95	=95	=95	=95	=95	=95	=95	=95	=95	=95	=95	=95	=95	=95	=95	=95	=95	=95	=95	=95	=95	=95	=95	=95	=95	=95	=95	=95	=95	=95	=95	=95	=95	=95
1.ryy	.	1.r	.	.	.	.	.	1.ryy	.	.	1.r	.	.	.	.	.	1.ryy	.	.	1.r	.	.	.	.	.	1.ryy	.	1.r	.	.	.	.	.
=96	=96	=96	=96	=96	=96	=96	=96	=96	=96	=96	=96	=96	=96	=96	=96	=96	=96	=96	=96	=96	=96	=96	=96	=96	=96	=96	=96	=96	=96	=96	=96	=96	=96
1.ryy	.	1.r;>	.	.	.	.	.	1.ryy	.	.	1.r;>	.	.	.	.	.	1.ryy	.	.	1.r;>	.	.	.	.	.	1.ryy	.	1.r;>	.	.	.	.	.
==	==	==	==	==	==	==	==	==	==	==	==	==	==	==	==	==	==	==	==	==	==	==	==	==	==	==	==	==	==	==	==	==	==
*-	*-	*-	*-	*-	*-	*-	*-	*-	*-	*-	*-	*-	*-	*-	*-	*-	*-	*-	*-	*-	*-	*-	*-	*-	*-	*-	*-	*-	*-	*-	*-	*-	*-
!!!system-decoration: [(g1)]
!!!ENC: Andrzej Gręziak
!!!END: 2021-08-20
!!!EED: Jędrzej Mróz
!!!ESR: 2021-10-04
!!!RDF**kern: > = above
!!!RDF**kern: < = below
!!!RDF**kern: @ = marked note, color=blue
!!!RDF**kern: j = marked note, color=red
